!!!!SEGMENT: pl-sa--61-a-ii-1--001_hasse-johann-adolf--veni-dilecta-veni-electa.krn
!!!cenid: 17xx:377
!!!COM: Hasse, Johann Adolf
!!!COM-rismid: pe51928
!!!CDT: 1699/03/25-1783/12/16
!!!CNT: German
!!!OTL: Veni dilecta veni electa
!!!PDT:
!!!AGN: Sacred
!!!SMS-siglum: PL-SA
!!!SMS-shelfmark: 61/A II 1
!!!SMS-shelfwork: 001 W
!!!NIFC-rismid: 1001041153
!!!URL-scan: http://bc.bdsandomierz.pl/dlibra/publication/1345/edition/1313/content
!!!ONB-nifc:
**kern	**dynam	**kern	**dynam	**kern	**dynam	**kern	**dynam	**kern	**text
*part5	*part5	*part4	*part4	*part3	*part3	*part2	*part2	*part1	*part1
*staff5	*	*staff4	*	*staff3	*	*staff2	*	*staff1	*staff1
*I"Fundamento	*	*I"Alto Violia	*	*I"Violino ſecundo	*	*I"Violino primo	*	*I"Canto	*
*I'bc	*	*I'a-vla	*	*I'vl 2	*	*I'vl 1	*	*I'C	*
*group3	*	*group2	*	*group2	*	*group2	*	*group1	*
*clefF4	*	*clefC3	*	*clefG2	*	*clefG2	*	*clefC1	*
*Trd0c0	*	*	*	*	*	*	*	*	*
*k[]	*	*k[]	*	*k[]	*	*k[]	*	*k[]	*
*C:	*	*C:	*	*C:	*	*C:	*	*C:	*
*M4/4	*	*M4/4	*	*M4/4	*	*M4/4	*	*M4/4	*
*met(c)	*	*met(c)	*	*met(c)	*	*met(c)	*	*met(c)	*
*>[A,B,B,C,C]	*	*>[A,B,B,C,C]	*	*>[A,B,B,C,C]	*	*>[A,B,B,C,C]	*	*>[A,B,B,C,C]	*
=1	=1	=1	=1	=1	=1	=1	=1	=1	=1
*>A	*	*>A	*	*>A	*	*>A	*	*>A	*
*2\right	*	*2\right	*	*2\right	*	*	*	*	*
!	!	!	!	!	!	!	!	!LO:TX:a:t=P:problem: podwójne odpisy głosów  w źródle	!
!	!	!LO:TX:a:t=Aria	!	!	!	!	!	!LO:TX:a:B:t=Andante	!
!LO:TX:a:t=Andante	!	!LO:TX:a:t=Andante	!	!LO:TX:a:t=Andante	!	!LO:TX:a:t=Andante	!	!	!
8r	.	8r	.	8cc\	.	8cc\	.	00r	.
8C\L	.	8c\L	.	4ee\	.	4gg\	.	.	.
8E\	.	8e\	.	.	.	.	.	.	.
8G\J	.	8g\J	.	8dd\	.	8ff\	.	.	.
.	.	.	.	8qqdd/	.	8qqff/	.	.	.
!LO:TX:a:t=P:problem: mixed beam	!	!	!	!	!	!	!	!	!
8c\L	.	4.g\	.	4.cc\	.	4.ee\	.	.	.
8C/J	.	.	.	.	.	.	.	.	.
!LO:TX:a:t=P:problem: mixed beam	!	!	!	!	!	!	!	!	!
8G\L	.	.	.	.	.	.	.	.	.
8GG/J	.	8f\	.	8b\	.	8dd\	.	.	.
=2	=2	=2	=2	=2	=2	=2	=2	=2	=2
8A\L	.	8e\L	.	8.ccT\L	.	8.ccT\L	.	.	.
8E\	.	8e\	.	.	.	.	.	.	.
.	.	.	.	(32b\LL	.	(32b\LL	.	.	.
.	.	.	.	32cc\JJJ)	.	32cc\JJJ)	.	.	.
8F\	.	8a\	.	8dd\L	.	8dd\L	.	.	.
8G\J	.	8d\J	.	8bt\J	.	8b\J	.	.	.
8r	.	8r	.	8cc\	.	8cc\	.	.	.
!	!	!LO:TX:a:t=P:problem: mixed beam	!	!	!	!	!	!	!
8C\L	.	8e\L	.	4g/	.	4g/	.	.	.
8E\	.	8G/	.	.	.	.	.	.	.
8D\J	.	8B/J	.	8f/	.	8f/	.	.	.
=3	=3	=3	=3	=3	=3	=3	=3	=3	=3
!	!	!	!	!	!LO:DY:a:t=p&colon;	!	!LO:DY:a:t=p&colon;	!	!
8r	.	8c\	.	8e/	p	8e/	p	.	.
8C\L	.	4r	.	4ee\	.	4gg\	.	.	.
8E\	.	.	.	.	.	.	.	.	.
8G\J	.	8r	.	8dd\	.	8ff\	.	.	.
.	.	.	.	8qqdd/	.	8qqff/	.	.	.
!LO:TX:a:t=P:problem: mixed beam	!	!	!LO:DY:a:t=p&colon;	!	!	!	!	!	!
8c\L	.	8c\	p	4.cc\	.	4.ee\	.	.	.
8C/	.	4g\	.	.	.	.	.	.	.
8G\	.	.	.	.	.	.	.	.	.
8GG/J	.	8f\	.	8b\	.	8dd\	.	.	.
=4	=4	=4	=4	=4	=4	=4	=4	=4	=4
8A\L	.	8e\L	.	8.ccT\L	.	8.ccT\L	.	.	.
8E\	.	8g\	.	.	.	.	.	.	.
.	.	.	.	(32b\LL	.	(32b\LL	.	.	.
.	.	.	.	32cc\JJJ)	.	32cc\JJJ)	.	.	.
8F\	.	8a\	.	8dd\L	.	8dd\L	.	.	.
!	!	!	!	!	!LO:DY:a	!	!LO:DY:a	!	!
8G\J	.	8d\J	.	8b\J	f	8b\J	f	.	.
!	!	!	!LO:DY:a:t=for	!	!	!	!	!	!
8r	.	8e\L	f	16cc\LL	.	16cc/LL	.	.	.
.	.	.	.	16g\JJ	.	16g/	.	.	.
8C\L	.	8c\	.	16e/LL	.	16e/	.	.	.
.	.	.	.	16g/JJ	.	16g/JJ	.	.	.
8E\	.	8g\	.	16cc/LL	.	16cc/LL	.	.	.
.	.	.	.	16g/JJ	.	16g/JJ	.	.	.
8G\J	.	8b\J	.	16dd\LL	.	16dd\LL	.	.	.
.	.	.	.	16g\JJ	.	16g\JJ	.	.	.
=5	=5	=5	=5	=5	=5	=5	=5	=5	=5
!LO:TX:a:t=P:problem: mixed beam	!	!LO:TX:a:t=P:problem: mixed beam	!	!	!	!	!	!	!
8c\L	.	8cc\L	.	16ee\LL	.	16ee\LL	.	00r	.
.	.	.	.	16cc\JJ	.	16cc\	.	.	.
8C/	.	8c/	.	16gg\LL	.	16gg\	.	.	.
.	.	.	.	16ee\JJ	.	16ee\JJ	.	.	.
8E/	.	8g\	.	8ccc\L	.	8ccc\L	.	.	.
8C/J	.	8cc\J	.	8ee\J	.	8ee\J	.	.	.
!LO:TX:a:t=P:problem: mixed beam	!	!	!	!	!	!	!	!	!
8G\L	.	8cc\L	.	8eet\	.	8ee\	.	.	.
8GG/	.	8b\	.	4dd\	.	4ddT\	.	.	.
8B\	.	8g\	.	.	.	.	.	.	.
8G\J	.	8b\J	.	8dd\	.	8dd\	.	.	.
=6	=6	=6	=6	=6	=6	=6	=6	=6	=6
*	*	*	*	*Xtuplet	*	*Xtuplet	*	*	*
!	!	!	!	!LO:TX:a:t=P:problem:brak oznaczenia trioli:global	!	!LO:TX:a:t=P:problem:brak oznaczenia trioli:global	!	!	!
!	!	!	!	!LO:TX:a:t=P:problem:triola oznaczana klamrą łukową z kropką nad triolą:global	!	!LO:TX:a:t=P:problem:triola oznaczana klamrą łukową z kropką nad triolą:global	!	!	!
!LO:TX:a:t=P:problem: mixed beam	!	!LO:TX:a:t=P:problem: mixed beam	!	!	!	!	!	!	!
8c\L	.	8cc\L	.	24ee\LL	.	24ee\LL	.	.	.
.	.	.	.	24dd\	.	24dd\	.	.	.
.	.	.	.	24cc\JJ	.	24cc\JJ	.	.	.
8C/	.	8c/	.	24gg\LL	.	24gg\LL	.	.	.
.	.	.	.	24ff\	.	24ff\	.	.	.
.	.	.	.	24ee\JJ	.	24ee\JJ	.	.	.
8E/	.	8g\	.	8ccc\L	.	8ccc\L	.	.	.
8C/J	.	8cc\J	.	8ee\J	.	8ee\J	.	.	.
*tremolo	*	*	*	*	*	*	*	*	*
8G\L	.	8cc\L	.	8eet\L	.	8eet\L	.	.	.
8G\	.	8b\	.	8dd\J	.	8dd\J	.	.	.
8G\	.	8g\	.	4ff\	.	4ff\	.	.	.
8G\J	.	8b\J	.	.	.	.	.	.	.
!	!	!	!	!LO:LB:g=original	!	!	!	!	!
=7	=7	=7	=7	=7	=7	=7	=7	=7	=7
!	!	!LO:TX:a:t=P:problem: mixed beam	!	!	!	!	!	!	!
8G\L	.	8g\L	.	24ee\LL	.	24ee\LL	.	.	.
.	.	.	.	24dd\	.	24dd\	.	.	.
.	.	.	.	24cc\JJ	.	24cc\JJ	.	.	.
8G\	.	8G/	.	24b\LL	.	24b\LL	.	.	.
.	.	.	.	24a\	.	24a\	.	.	.
.	.	.	.	24g\JJ	.	24g\JJ	.	.	.
8G\	.	8G/	.	8.fT/L	.	8.f/L	.	.	.
8G\J	.	8G/J	.	.	.	.	.	.	.
.	.	.	.	32e/LL	.	32e/LL	.	.	.
.	.	.	.	32f/JJJ	.	32f/JJJ	.	.	.
!	!	!	!	!	!	!LO:LB:g=original	!	!	!
*	*	*tremolo	*	*	*	*	*	*	*
8G\L	.	8G/L	.	16e/LL	.	16e/LL	.	.	.
.	.	.	.	16g/JJ	.	16g/	.	.	.
8G\	.	8G/	.	16cc\LL	.	16cc/	.	.	.
.	.	.	.	16g\JJ	.	16g/JJ	.	.	.
8G\	.	8G/	.	8.ffT\L	.	8.ffT\L	.	.	.
8G\J	.	8G/J	.	.	.	.	.	.	.
.	.	.	.	(32ee\LL	.	(32ee\LL	.	.	.
.	.	.	.	32ff\JJJ)	.	32ff\JJJ)	.	.	.
!LO:LB:g=original	!	!	!	!	!	!	!	!	!
=8	=8	=8	=8	=8	=8	=8	=8	=8	=8
8G\L	.	8G/L	.	24ee\LL	.	24ee\LL	.	.	.
.	.	.	.	24dd\	.	24dd\	.	.	.
.	.	.	.	24cc\JJ	.	24cc\JJ	.	.	.
8G\	.	8G/	.	24b/LL	.	24b\LL	.	.	.
.	.	.	.	24a/	.	24a\	.	.	.
.	.	.	.	24g/JJ	.	24g\JJ	.	.	.
8G\	.	8G/	.	8.fT/L	.	8.fT/L	.	.	.
8G\J	.	8G/J	.	.	.	.	.	.	.
.	.	.	.	32e/LL	.	(32e/LL	.	.	.
.	.	.	.	32f/JJJ	.	32f/JJJ)	.	.	.
8G\L	.	8G/L	.	16e/LL	.	16et/LL	.	.	.
.	.	.	.	16g/JJ	.	16g/	.	.	.
8G\	.	8G/	.	16cc\LL	.	16cc/	.	.	.
.	.	.	.	16g\JJ	.	16g/JJ	.	.	.
8G\	.	8G/	.	8.ffT\L	.	8.ffT\L	.	.	.
8G\J	.	8G/J	.	.	.	.	.	.	.
.	.	.	.	32ee\LL	.	32ee\LL	.	.	.
.	.	.	.	32ff\JJJ	.	32ff\JJJ	.	.	.
*	*	*Xtremolo	*	*	*	*	*	*	*
=9	=9	=9	=9	=9	=9	=9	=9	=9	=9
!	!	!	!	!LO:TX:a:t=P:brak kropki przy ozn. trioli	!	!LO:TX:a:t=P:brak kropki przy ozn. trioli	!	!	!
8G\L	.	8G/L	.	24ee\LL	.	24ee\LL	.	0r	.
.	.	.	.	24dd\	.	24dd\	.	.	.
.	.	.	.	24cc\JJ	.	24cc\JJ	.	.	.
!	!	!	!	!LO:TX:a:t=P:brak kropki przy ozn. trioli	!	!LO:TX:a:t=P:brak kropki przy ozn. trioli	!	!	!
8G\	.	8G/	.	24b/LL	.	24b\LL	.	.	.
.	.	.	.	24a/	.	24a\	.	.	.
.	.	.	.	24g/JJ	.	24g\JJ	.	.	.
8G\	.	8B/	.	8.ffT\L	.	8.ffT\L	.	.	.
8G\J	.	8B/J	.	.	.	.	.	.	.
.	.	.	.	(32ee\LL	.	(32ee\LL	.	.	.
.	.	.	.	32ff\JJJ)	.	32ff\JJJ)	.	.	.
*Xtremolo	*	*	*	*	*	*	*	*	*
!	!	!LO:LB:g=original	!	!	!	!LO:TX:a:t=P:brak kropki przy ozn. trioli	!	!	!
8G\L	.	8c\L	.	24ee\LL	.	24ee\LL	.	.	.
.	.	.	.	24dd\	.	24dd\	.	.	.
.	.	.	.	24cc\JJ	.	24cc\JJ	.	.	.
!	!	!	!	!	!	!LO:TX:a:t=P:brak kropki przy ozn. trioli	!	!	!
8G\	.	8c\	.	24b/LL	.	24b\LL	.	.	.
.	.	.	.	24a/	.	24a\	.	.	.
.	.	.	.	24g/JJ	.	24g\JJ	.	.	.
8G\	.	8d\	.	8.bbt\L	.	8.bbt\L	.	.	.
8F\J	.	8d\J	.	.	.	.	.	.	.
.	.	.	.	(32aa\LL	.	(32aa\LL	.	.	.
.	.	.	.	32bb\JJJ)	.	32bb\JJJ)	.	.	.
=10	=10	=10	=10	=10	=10	=10	=10	=10	=10
8E\L	.	8e\L	.	8ccc\L	.	8ccc\L	.	.	.
8A\	.	8c\J	.	16.cc\L	.	16.cc\L	.	.	.
.	.	.	.	32dd\JJk	.	32dd\JJk	.	.	.
8F\	.	8c\L	.	4ddT\	.	4ddT\	.	.	.
8G\J	.	8B\J	.	.	.	.	.	.	.
4C/	.	4c\	.	8cc\L	.	8cc\L	.	.	.
.	.	.	.	8g\J	.	8g\J	.	.	.
4r	.	4r	.	4c/	.	4c/	.	.	.
!LO:TX:a:t=[segno]	!	!LO:TX:a:t=[segno]	!	!LO:TX:a:t=[segno]	!	!LO:TX:a:t=[segno]	!	!LO:TX:a:t=[segno]	!
=11||	=11||	=11||	=11||	=11||	=11||	=11||	=11!|:	=11||	=11!|:
*>B	*	*>B	*	*>B	*	*>B	*	*>B	*
!	!	!	!LO:DY:a	!	!LO:DY:a:t=p&colon;	!	!LO:DY:a	!	!
8r	p	2r	p	8g/	p	(8cc\	p	8cc\	Ve-
8C\L	.	.	.	4dd\	.	4gg\)	.	4gg\	-ni
8E\	.	.	.	.	.	.	.	.	.
8G\J	.	.	.	8dd\	.	8ff\	.	8ff\	di-
!LO:TX:a:t=P:problem: mixed beam	!	!	!	!	!	!	!	!	!
.	.	.	.	8qqdd/	.	8qqff/	.	8qqff/	.
8c\L	.	8c\	.	4.cc\	.	4.ee\	.	4.ee\	-lec-
8C/J	.	4g\	.	.	.	.	.	.	.
8G\L	.	.	.	.	.	.	.	.	.
8GG/J	.	8f\	.	8b\	.	8dd\	.	8dd\	-ta
!	!	!	!	!LO:LB:g=original	!	!	!	!	!
=12	=12	=12	=12	=12	=12	=12	=12	=12	=12
8A\L	.	8e\L	.	8.ccT\L	.	8.ccT\L	.	8.cc\L	Ve-
8E\	.	8g\	.	.	.	.	.	.	.
.	.	.	.	(32b\LL	.	(32b\LL	.	(32b\LL	.
.	.	.	.	32cc\JJJ)	.	32cc\JJJ)	.	32cc\J	.
8F\	.	8f\	.	8dd\L	.	8dd\L	.	16dd\JJ)	-ni
.	.	.	.	.	.	.	.	8b\	e-
8G\J	.	8d\J	.	8b\J	.	8b\J	.	.	.
.	.	.	.	.	.	.	.	8cc\	-lec-
8r	.	4e\	.	8cc\	.	8cc\	.	.	.
.	.	.	.	.	.	.	.	4g/	-ta
8C\L	.	.	.	4g/	.	4gT/	.	.	.
8E\	.	8G/L	.	.	.	.	.	.	.
.	.	.	.	.	.	.	.	8.r	.
8D\J	.	8c/J	.	8f/	.	8f/	.	.	.
=13	=13	=13	=13	=13	=13	=13	=13	=13	=13
8r	.	8c\	.	8e/	.	(8e/	.	(8cc\	Ve-
8C\L	.	4r	.	4ee\	.	4gg\)	.	4gg\)	-ni
8E\	.	.	.	.	.	.	.	.	.
8G\J	.	8r	.	8dd\	.	8ff\	.	8ff\	di-
!LO:TX:a:t=P:problem: mixed beam	!	!	!	!	!	!	!	!	!
.	.	.	.	8qqdd/	.	8qqff/	.	8qqff/	.
8c\L	.	8c\	.	4.cc\	.	4.ee\	.	4.ee\	-lec-
8C/J	.	4g\	.	.	.	.	.	.	.
!LO:TX:a:t=P:problem: mixed beam	!	!	!	!	!	!	!	!	!
8G\L	.	.	.	.	.	.	.	.	.
8GG/J	.	8f\	.	8b\	.	8dd\	.	8dd\	-ta
!	!	!	!	!	!	!LO:LB:g=original	!	!	!
=14	=14	=14	=14	=14	=14	=14	=14	=14	=14
8A\L	.	8e\L	.	8.ccT\L	.	8.ccT\L	.	8.ccT\L	ve-
8E\	.	8g\	.	.	.	.	.	.	.
.	.	.	.	32b\LL	.	(32b\LL	.	(32b\LL	.
.	.	.	.	32cc\JJJ	.	32cc\JJJ)	.	32cc\J	.
8F\	.	8f\	.	8dd\L	.	8dd\L	.	16dd\JJ)	-ni
.	.	.	.	.	.	.	.	8b\	.
8G\J	.	8d\J	.	8b\J	.	8b\J	.	.	.
.	.	.	.	.	.	.	.	8cc\	-lec-
8r	.	8e\L	.	16cc\LL	.	16cc/LL	.	.	.
.	.	.	.	16g\JJ	.	16g/	.	4.g/	-ta
8C\L	.	8c\	.	16e/LL	.	16e/	.	.	.
.	.	.	.	16g/JJ	.	16g/JJ	.	.	.
8E\	.	8e\	.	16cc\LL	.	16cc\LL	.	.	.
.	.	.	.	16g\JJ	.	16g\	.	.	.
8G\J	.	8g\J	.	16dd\LL	.	16dd\	.	.	.
.	.	.	.	16g\JJ	.	16g\JJ	.	16r	.
=15	=15	=15	=15	=15	=15	=15	=15	=15	=15
!LO:TX:a:t=P:problem: mixed beam	!	!	!	!	!	!	!	!	!
8c\L	.	8g\L	.	8cc\L	.	8ee\L	.	8.ee\L	Ve-
8C/J	.	8g\	.	8cc\	.	8ee\	.	.	.
.	.	.	.	.	.	.	.	(32ff\LL	.
.	.	.	.	.	.	.	.	32gg\JJJ)	.
8F\L	.	8a\	.	8dd\	.	8ff\	.	8ff\	-ni
8F#X\J	.	8a\J	.	8cc\J	.	8ee\J	.	8ee\	a-
!LO:TX:a:t=P:problem: mixed beam	!	!	!	!	!	!	!	!LO:LB:g=original	!
8G\L	.	8g\L	.	8cc\L	.	8ee\L	.	8ee\	-mi-
8GG/J	.	8g\	.	8b\	.	8dd\	.	4dd\	-ca
8G\L	.	8g\	.	8b\	.	8dd\	.	.	.
8Fn\J	.	8f\J	.	8b\J	.	8dd\J	.	8g\	Co-
=16	=16	=16	=16	=16	=16	=16	=16	=16	=16
!	!	!	!	!	!	!LO:TX:a:t=P:problem: mixed beam	!	!	!
8E\L	.	8e\L	.	8cc\L	.	8g/L	.	8.cc\L	-ro-
8E\	.	8e\	.	8cc\	.	(8gg\	.	.	.
.	.	.	.	.	.	.	.	32dd\LL	.
.	.	.	.	.	.	.	.	32ee\JJ	.
8D\	.	8d\	.	8b\	.	8ff\	.	8ff\J	.
8C\J	.	8c\J	.	8cc\J	.	8ee\J)	.	8ee\	-na-
!LO:LB:g=original	!	!	!	!	!	!	!	!	!
!LO:TX:a:t=P:problem: mixed beam	!	!LO:TX:a:t=P:problem: mixed beam	!	!	!	!	!	!	!
8G\L	.	8g\L	.	8cc\	.	8ee\	.	8ee\	-be-
8GG/	.	8G/	.	4b\	.	4dd\	.	4dd\	-ris
8G\	.	8G/	.	.	.	.	.	.	.
8A\J	.	8A/J	.	8f#X/	.	[8dd\	.	8r	.
=17	=17	=17	=17	=17	=17	=17	=17	=17	=17
*	*	*	*	*tremolo	*	*	*	*	*
8B\L	.	8B/L	.	8g/L	.	8dd\]	.	8dd\	Ve-
8B\	.	8B/	.	8g/	.	4dd\	.	4gg\	-ni
8G\	.	8G/	.	8g/	.	.	.	.	.
.	.	.	.	.	.	.	.	8qqff/	.
8G\J	.	8G/J	.	8g/J	.	8b\	.	8ee\	di-
.	.	.	.	.	.	.	.	8qqdd/	.
*	*	*	*	*	*	*2\right	*	*	*
*	*	*tremolo	*	*	*	*tremolo	*	*	*
8A\L	.	8B/L	.	8g/L	.	8cc\L	.	4.cc\	-lec-
8A\	.	8B/	.	8g/	.	8cc\	.	.	.
8D\	.	8B/	.	8g/	.	8cc\	.	.	.
8D\J	.	8B/J	.	8g/J	.	8cc\J	.	16b\LL	-ta
.	.	.	.	.	.	.	.	16a\JJ	.
*	*	*Xtremolo	*	*Xtremolo	*	*Xtremolo	*	*	*
!	!	!LO:LB:g=original	!	!	!	!	!	!	!
=18	=18	=18	=18	=18	=18	=18	=18	=18	=18
!	!	!LO:TX:a:t=P:problem: mixed beam	!	!LO:TX:a:t=P:problem: mixed beam	!	!	!	!	!
8G\L	.	8G/L	.	8g/L	.	8b/L	.	8.b\L	ve-
8G\J	.	8G/	.	8dd\	.	8b/	.	.	.
.	.	.	.	.	.	.	.	32cc\LL	-ni
.	.	.	.	.	.	.	.	32dd\JJ	.
8Cn/L	.	8e\	.	8cc\	.	8a/	.	8cc\J	.
8C#X/J	.	8e\J	.	8b\J	.	8g/J	.	8b\	e-
!LO:TX:a:t=P:problem: mixed beam	!	!	!	!	!	!	!	!	!
8D/L	.	8d\L	.	8b/L	.	8g/	.	8b\	-lec-
8d\	.	8d\	.	8a/	.	4f#X/	.	4a\	-ta
8d\	.	8d\	.	8a/	.	.	.	.	.
8cn\J	.	8c\J	.	8a/J	.	16e/LL	.	8r	.
.	.	.	.	.	.	16d/JJ	.	.	.
=19	=19	=19	=19	=19	=19	=19	=19	=19	=19
*	*	*	*	*	*	*tremolo	*	*	*
8B\L	.	8B/L	.	8a/L	.	8dd\L	.	4dd\	Ve-
8B\	.	8B/	.	8g/	.	8dd\	.	.	.
.	.	.	.	.	.	.	.	8qqcc/	.
8G\	.	8G/	.	8g/	.	8dd\	.	4b\	-ni
8G\J	.	8G/J	.	8g/J	.	8dd\J	.	.	.
*	*	*	*	*tremolo	*	*	*	*	*
!	!	!	!	!LO:LB:g=original	!	!	!	!	!
8c\L	.	8c/L	.	8g/L	.	8ee\L	.	16ee\LL	Ve-
.	.	.	.	.	.	.	.	16dd\JJ	.
8c\	.	8c/	.	8g/	.	8ee\	.	4cc\	.
8c\	.	8c/	.	8g/	.	8ee\	.	.	.
8B\J	.	8B/J	.	8g/J	.	8ee\J	.	8dd\	.
*	*	*	*	*Xtremolo	*	*	*	*	*
=20	=20	=20	=20	=20	=20	=20	=20	=20	=20
*tremolo	*	*tremolo	*	*	*	*	*	*	*
8c\L	.	8c\L	.	8g/L	.	8ee\L	.	8ee\L	.
8c\	.	8c\	.	8a/	.	8ee\	.	8aa\J	.
8c\	.	8c\	.	8a/	.	8ee\	.	16aa\LL	.
.	.	.	.	.	.	.	.	16gg\	.
8c\J	.	8c\J	.	8a/J	.	8ee\J	.	16ff#X\	.
.	.	.	.	.	.	.	.	16ee\JJ	.
!	!	!	!	!	!	!	!	!LO:LB:g=original	!
.	.	.	.	.	.	.	.	8qqee/	.
*	*	*	*	*tremolo	*	*	*	*	*
8B\L	.	8B/L	.	8a/L	.	8dd\L	.	16dd\LL	.
.	.	.	.	.	.	.	.	16cc\JJ	.
8B\	.	8B/	.	8a/	.	8dd\	.	4b\	.
8B\	.	8B/	.	8a/	.	8dd\	.	.	.
8B\J	.	8B/J	.	8a/J	.	8dd\J	.	8cc\	.
=21	=21	=21	=21	=21	=21	=21	=21	=21	=21
8B\L	.	8B/L	.	8g/L	.	8dd\L	.	8dd\L	.
8B\	.	8B/	.	8g/	.	8dd\	.	8gg\J	.
8B\	.	8B/	.	8g/	.	8dd\	.	16gg\LL	.
.	.	.	.	.	.	.	.	16ff#X\	.
8B\J	.	8B/J	.	8g/J	.	8dd\J	.	16ee\	.
.	.	.	.	.	.	.	.	16dd\JJ	.
.	.	.	.	.	.	.	.	8qqdd/	.
8A\L	.	8A/L	.	8g/L	.	8cc\L	.	(16cc\LL	.
.	.	.	.	.	.	.	.	16b\JJ)	.
8A\	.	8A/	.	8g/	.	8cc\	.	4a\	.
8A\	.	8A/	.	8g/	.	8cc\	.	.	.
8A\J	.	8A/J	.	8g/J	.	8cc\J	.	8b\	.
=22	=22	=22	=22	=22	=22	=22	=22	=22	=22
8D\L	.	8A/L	.	8f#X/L	.	8cc\L	.	8cc\L	.
8D\	.	8A/	.	8f#/	.	8cc\	.	8ff#X\J	.
8D\	.	8A/	.	8f#/	.	8cc\	.	16ff#\LL	.
.	.	.	.	.	.	.	.	16ee\	.
8D\J	.	8A/J	.	8f#/J	.	8cc\J	.	16dd\	.
.	.	.	.	.	.	.	.	16cc\JJ	.
*	*	*Xtremolo	*	*Xtremolo	*	*Xtremolo	*	*	*
!	!	!	!	!LO:TX:a:t=P:problem: mixed beam	!	!	!	!LO:TX:a:t=P:problem:nuty ujęte w znak repetycji	!
8G\L	.	8G/L	.	8g/L	.	8b\L	.	8b\L	.
!	!	!LO:TX:a:t=P:problem: mixed beam	!	!	!	!	!	!	!
8G\	.	8g\	.	8g/	.	8b\	.	8gg\J	.
8G\	.	8g\	.	8ee\	.	8cc#X\	.	4cc#X\	.
8G\J	.	8g\J	.	8ee\J	.	8cc#\J	.	.	.
!	!	!	!	!	!	!LO:LB:g=original	!	!	!
=23	=23	=23	=23	=23	=23	=23	=23	=23	=23
*	*	*tremolo	*	*	*	*	*	*	*
8F#X\L	.	8f#X\L	.	(8a/	.	(8dd\	.	8dd\	.
8F#\	.	8f#\	.	4.aa\)	.	4.ccn\)	.	4ccn\	.
8F#\	.	8f#\	.	.	.	.	.	.	.
8F#\J	.	8f#\J	.	.	.	.	.	16b\LL	.
!	!	!	!	!	!	!	!	!LO:TX:a:t=P:problem:koniec znaku repetycji	!
.	.	.	.	.	.	.	.	16a\JJ	.
!	!	!	!	!	!	!	!	!LO:TX:a:t=P:problem:nuty powtórzone znakiem reptycji	!
8G\L	.	8g\L	.	(8gg\	.	(8b\	.	8b\Lyy	.
8G\	.	8g\	.	4.ee\)	.	4.cc#X\)	.	8gg\Jyy	.
8G\	.	8g\	.	.	.	.	.	4cc#X\yy	.
8G\J	.	8g\J	.	.	.	.	.	.	.
=24	=24	=24	=24	=24	=24	=24	=24	=24	=24
8F#X\L	.	8f#X\L	.	8a/	.	(8dd\	.	8dd\yy	.
8F#\	.	8f#\	.	4.aa\	.	4.ccn\)	.	4cc\yy	.
8F#\	.	8f#\	.	.	.	.	.	.	.
8F#\J	.	8f#\J	.	.	.	.	.	16b\LLyy	.
.	.	.	.	.	.	.	.	16a\JJyy	.
*Xtremolo	*	*Xtremolo	*	*	*	*	*	*	*
8G\L	.	8g\L	.	8gg\	.	8b\	.	16b\LL	.
.	.	.	.	.	.	.	.	16g\J	.
8G\	.	8g\	.	4g/	.	4b\	.	8gg\J	.
8F#X\	.	8f#X\	.	.	.	.	.	16gg\LL	.
.	.	.	.	.	.	.	.	16aa\J	.
8F#\J	.	8f#\J	.	8g/	.	8b\	.	8gg\J	.
!LO:LB:g=original	!	!	!	!	!	!	!	!	!
=25	=25	=25	=25	=25	=25	=25	=25	=25	=25
8E\L	.	8e\L	.	8g/	.	8b\	.	16gg\LL	.
.	.	.	.	.	.	.	.	16bb\JJ	.
8E\	.	8e\	.	4g/	.	4b\	.	4gg\	.
8D\	.	8d\	.	.	.	.	.	.	.
8C\J	.	8c\J	.	8a/	.	8cc\	.	8gg\	.
8BB/L	.	8B/L	.	8b\L	.	8dd\L	.	8gg\L	-ni
8AA/	.	8A/	.	8cc\	.	8ee\	.	16ff#X\L	.
.	.	.	.	.	.	.	.	16ee\JJ	.
8BB/	.	8B/	.	8b\	.	8dd\	.	8dd\L	Co-
8C/J	.	8c/J	.	8a\J	.	8cc\J	.	8cc\J	.
!	!	!	!	!	!	!	!	!LO:LB:g=original	!
=26	=26	=26	=26	=26	=26	=26	=26	=26	=26
*tremolo	*	*tremolo	*	*	*	*	*	*	*
8D\L	.	8d\L	.	8g/L	.	8b\L	.	8.b\L	-ro-
8D\	.	8d\	.	8g/	.	8b\	.	.	.
.	.	.	.	.	.	.	.	16cc\Jk	-na-
8D\	.	8d\	.	8f#X/	.	8a\	.	4a\	-be-
!	!	!	!	!	!LO:DY:a:t=for	!	!	!	!
8D\J	.	8d\J	.	8f#/J	f	8a\J	.	.	.
!	!LO:DY:a	!	!	!	!	!	!LO:DY:a:t=for	!	!
*Xtremolo	*	*Xtremolo	*	*	*	*	*	*	*
8r	f	8B/L	.	8gg\	.	8gg\	f	4g\	-ris
8G\L	.	8G/	.	4bb\	.	4ddd\	.	.	.
8B\	.	8B/	.	.	.	.	.	4r	.
8d\J	.	8d/J	.	8aa\	.	8ccc\	.	.	.
=27	=27	=27	=27	=27	=27	=27	=27	=27	=27
.	.	.	.	8qqaa/	.	8qqccc/	.	.	.
!LO:TX:a:t=P:problem: mixed beam	!	!	!	!	!	!	!	!	!
8G\L	.	8d\	.	4.gg\	.	4.bb\	.	0r	.
8GG/	.	4dd\	.	.	.	.	.	.	.
8d\	.	.	.	.	.	.	.	.	.
8D/J	.	8cc\	.	8ff#X\	.	8aa\	.	.	.
!	!	!LO:LB:g=original	!	!	!	!	!	!	!
8e\L	.	8b\L	.	8.ggT\L	.	8.ggT\L	.	.	.
8B\	.	8dd\	.	.	.	.	.	.	.
.	.	.	.	(32ff#\LL	.	(32ff#X\LL	.	.	.
.	.	.	.	32gg\JJJ)	.	32gg\JJJ)	.	.	.
8c\	.	8cc\	.	8aa\L	.	8aa\L	.	.	.
.	.	.	.	8qqgg/	.	8qqgg/	.	.	.
8d\J	.	8a\J	.	8ff#t\J	.	8ff#Xt\J	.	.	.
!	!	!	!	!LO:LB:g=original	!	!	!	!	!
=28	=28	=28	=28	=28	=28	=28	=28	=28	=28
8r	.	8b\	.	8gg\	.	8gg\	.	.	.
8GG/L	.	4b\	.	4dd\	.	4dd\	.	.	.
8BB/	.	.	.	.	.	.	.	.	.
8D/J	.	8a\	.	8cc\	.	8cc\	.	.	.
!LO:TX:a:t=P:problem: mixed beam	!	!	!	!	!	!	!	!	!
8G\L	.	8g\L	.	8.bt\L	.	8.bt\L	.	.	.
8GG/	.	8d\	.	.	.	.	.	.	.
.	.	.	.	(32a\LL	.	(32a\LL	.	.	.
.	.	.	.	32b\JJJ)	.	32b\JJJ)	.	.	.
!	!	!	!	!LO:TX:a:t=P:problem: mixed beam	!	!LO:TX:a:t=P:problem: mixed beam	!	!	!
8E\	.	8g\	.	8cc\L	.	8cc\L	.	.	.
8C\J	.	8e\J	.	8e/J	.	8e/J	.	.	.
=29	=29	=29	=29	=29	=29	=29	=29	=29	=29
!	!	!LO:TX:a:t=P:problem: mixed beam	!	!	!	!	!	!	!
8D\L	.	8A/L	.	8.f#Xt/L	.	8.f#Xt/L	.	1r	.
8C\	.	8a\J	.	.	.	.	.	.	.
.	.	.	.	32e/LL	.	32e/LL	.	.	.
.	.	.	.	32d/JJJ	.	32d/JJJ	.	.	.
8BB\	.	8d\L	.	16g/LL	.	16g/LL	.	.	.
.	.	.	.	16d/JJ	.	16d/	.	.	.
8C\J	.	8e\J	.	16cc\LL	.	16cc/	.	.	.
.	.	.	.	16a\JJ	.	16a/JJ	.	.	.
!	!	!	!	!	!	!LO:LB:g=original	!	!	!
!	!	!	!	!	!	!LO:TX:a:t=P:brak klamry łukowej z kropką przy ozn. trioli	!	!	!
4D\	.	4d\	.	24b/LL	.	24b/LL	.	.	.
.	.	.	.	24a/	.	24a/	.	.	.
.	.	.	.	24g/JJ	.	24g/JJ	.	.	.
!	!	!	!	!	!	!LO:TX:a:t=P:brak klamry łukowej z kropką przy ozn. trioli	!	!	!
.	.	.	.	24f#/LL	.	24f#X/LL	.	.	.
.	.	.	.	24e/	.	24e/	.	.	.
.	.	.	.	24d/JJ	.	24d/JJ	.	.	.
!	!	!	!	!LO:TX:a:t=P:problem:wrysowana zbędna kreska taktowa	!	!	!	!	!
4DD/	.	4f#X\	.	4aT/	.	4aT/	.	.	.
=30	=30	=30	=30	=30	=30	=30	=30	=30	=30
4GG/	.	8g\L	.	8g/L	.	8g/L	.	2r	.
.	.	8d\J	.	8d/J	.	8d/J	.	.	.
!	!	!	!	!	!LO:DY:a	!	!LO:DY:a	!	!
4r	.	4G/	.	4G/	p	4G/	p	.	.
8r	.	2r	.	8g/	.	(8g/	.	(8g\	Ve-
8GG/L	.	.	.	4b\	.	4dd\)	.	4dd\)	-ni
8BB/	.	.	.	.	.	.	.	.	.
8D/J	.	.	.	8a/	.	8cc\	.	8cc\	di-
=31	=31	=31	=31	=31	=31	=31	=31	=31	=31
.	.	.	.	8qqa/	.	8qqcc/	.	8qqcc/	.
!LO:TX:a:t=P:problem: mixed beam	!	!	!	!	!	!	!	!	!
8G\L	.	8G/	.	4.g/	.	4.b\	.	4.b\	-lec-
8GG/	.	4d\	.	.	.	.	.	.	.
8G\	.	.	.	.	.	.	.	.	.
8F\J	.	8d\	.	8a/	.	8cc\	.	8a\	-ta
8E\L	.	8e\L	.	8g/	.	8b\	.	8g\	ve-
8D\	.	8d\	.	4b\	.	4ff\	.	4ff\	-ni
8BB\	.	8d\	.	.	.	.	.	.	.
8C\J	.	8c\J	.	8cc\	.	8ee\	.	8ee\	e-
=32	=32	=32	=32	=32	=32	=32	=32	=32	=32
8r	.	8r	.	8cc\	.	8ee\	.	8ee\	-lec-
!LO:TX:a:t=P:problem: mixed beam	!	!	!	!	!	!	!	!	!
8G\L	.	8g\L	.	4.b\	.	4.dd\	.	4dd\	-ta
8GG/	.	8g\	.	.	.	.	.	.	.
8F\J	.	8g\J	.	.	.	.	.	8r	.
8E\L	.	4g\	.	8cc\	.	8cc\	.	8cc\	ve-
8C\	.	.	.	4ee\	.	4gg\	.	4gg\	-ni
8E\	.	4r	.	.	.	.	.	.	.
8G\J	.	.	.	8dd\	.	8ff\	.	8ff\	di-
!LO:LB:g=original	!	!	!	!	!	!	!	!	!
=33	=33	=33	=33	=33	=33	=33	=33	=33	=33
!LO:TX:a:t=P:problem: mixed beam	!	!	!	!	!	!	!	!	!
.	.	.	.	.	.	8qqff/	.	8qqff/	.
8c\L	.	8c\	.	4.cc\	.	4.ee\	.	4.ee\	-lec-
8C/J	.	4g\	.	.	.	.	.	.	.
!LO:TX:a:t=P:problem: mixed beam	!	!	!	!	!	!	!	!	!
8G\L	.	.	.	.	.	.	.	.	.
8GG/J	.	8f\	.	8b\	.	8dd\	.	8dd\	-ta
8A\L	.	8e\L	.	8a/L	.	8.ccT\L	.	8.cc\L	ve-
8E\	.	8e\	.	8g/	.	.	.	.	.
.	.	.	.	.	.	32b\LL	.	32b\LL	-ni
.	.	.	.	.	.	32cc\JJJ	.	32cc\JJ	.
8F\	.	8f\	.	8a/	.	8dd\L	.	8dd\J	.
8G\J	.	8g\J	.	8d/J	.	8b\J	.	8b\	e-
=34	=34	=34	=34	=34	=34	=34	=34	=34	=34
!	!	!	!	!LO:TX:a:t=P:problem: mixed beam	!	!	!	!	!
8r	.	8r	.	8e/L	.	8cc\	.	8cc\	-lec-
8C\L	.	8c\L	.	8ee\	.	4.b-X\	.	4.b-X\	-ta
8D\	.	8d\	.	8ff\	.	.	.	.	.
8E\J	.	8e\J	.	8gg\J	.	.	.	.	.
!	!	!	!	!	!	!	!	!LO:LB:g=original	!
8F\L	.	8f\L	.	8aa\	.	8a/	.	8a\	Ve-
8D\	.	8d\	.	4aa\	.	4ff\	.	4ff\	.
8E\	.	8e\	.	.	.	.	.	.	.
8F\J	.	8f\J	.	16gg\LL	.	16ee\LL	.	16ee\LL	.
.	.	.	.	16ff\JJ	.	16dd\JJ	.	16dd\JJ	.
=35	=35	=35	=35	=35	=35	=35	=35	=35	=35
!LO:TX:a:t=P:problem: mixed beam	!	!LO:TX:a:t=P:problem: mixed beam	!	!	!	!	!	!	!
.	.	.	.	8qqee/	.	8qqcc/	.	8qqcc/	.
8G\L	.	8g\L	.	4.dd\	.	4.bn\	.	4.b\	.
8GG/J	.	8G/	.	.	.	.	.	.	.
8G\L	.	8g\	.	.	.	.	.	.	.
8A\J	.	8a\J	.	8ff#X\	.	8cc\	.	8a\	.
!	!	!LO:LB:g=original	!	!LO:LB:g=original	!	!	!	!	!
8B\L	.	8b\L	.	8gg\	.	8dd\	.	8g/	.
8G\	.	8g\	.	4ffn\	.	4dd\	.	4ff\	.
8B\	.	8b\	.	.	.	.	.	.	.
8c\J	.	8cc\J	.	8ee\	.	8cc\	.	8ee\	.
=36	=36	=36	=36	=36	=36	=36	=36	=36	=36
8G\L	.	8g\L	.	8ee\L	.	8cc\	.	8ee\	.
8G\	.	8g\	.	8dd\	.	4b\	.	4dd\	-ni
8G\	.	8g\	.	8dd\	.	.	.	.	.
!	!	!	!	!	!	!LO:LB:g=original	!	!	!
8F\J	.	8f\J	.	8dd\J	.	8a\	.	8r	.
!	!	!	!	!	!	!LO:TX:a:t=P:problem: mixed beam	!	!	!
8E\L	.	8e\L	.	8dd\L	.	8g/L	.	4gg\	Co-
8E\	.	8e\	.	8cc\	.	8gg\	.	.	.
8C\	.	8c\	.	8cc\	.	8gg\	.	4ee\	-ro-
8C\J	.	8c\J	.	8cc\J	.	8gg\J	.	.	.
=37	=37	=37	=37	=37	=37	=37	=37	=37	=37
*tremolo	*	*tremolo	*	*	*	*tremolo	*	*	*
8F\L	.	8f\L	.	8cc\L	.	8aa\L	.	16aa\LL	-na-
.	.	.	.	.	.	.	.	16gg\JJ	.
8F\	.	8f\	.	8cc\	.	8aa\	.	4ff\	.
8F\	.	8f\	.	8cc\	.	8aa\	.	.	.
8F\J	.	8f\J	.	8cc#X\J	.	8aa\J	.	8ee\	.
*	*	*	*	*tremolo	*	*	*	*	*
8F\L	.	8f\L	.	8dd\L	.	8aa\L	.	16dd\LL	.
.	.	.	.	.	.	.	.	16cc#X\	.
8F\	.	8f\	.	8dd\	.	8aa\	.	16dd\	.
.	.	.	.	.	.	.	.	16ff\JJ	.
8F\	.	8f\	.	8dd\	.	8aa\	.	4aa\	.
8F\J	.	8f\J	.	8dd\J	.	8aa\J	.	.	.
=38	=38	=38	=38	=38	=38	=38	=38	=38	=38
8E\L	.	8e\L	.	8dd\L	.	8gg\L	.	16gg\LL	.
.	.	.	.	.	.	.	.	16ff\JJ	.
8E\	.	8e\	.	8dd\	.	8gg\	.	4ee\	.
8E\	.	8e\	.	8dd\	.	8gg\	.	.	.
8E\J	.	8e\J	.	8dd\J	.	8gg\J	.	8dd\	.
8E\L	.	8e\L	.	8cc\L	.	8gg\L	.	16cc\LL	.
.	.	.	.	.	.	.	.	16b\	.
8E\	.	8e\	.	8cc\	.	8gg\	.	16cc\	.
.	.	.	.	.	.	.	.	16ee\JJ	.
8E\	.	8e\	.	8cc\	.	8gg\	.	4gg\	.
8E\J	.	8e\J	.	8cc\J	.	8gg\J	.	.	.
=39	=39	=39	=39	=39	=39	=39	=39	=39	=39
!	!	!	!	!	!	!LO:SIC:s=fis:v	!	!	!
8D\L	.	8d\L	.	8cc\L	.	8ff\L	.	16ff#X\LL	.
.	.	.	.	.	.	.	.	16ee\JJ	.
8D\	.	8d\	.	8cc\	.	8ff\	.	4dd\	.
8D\	.	8d\	.	8cc\	.	8ff\	.	.	.
8D\J	.	8d\J	.	8cc\J	.	8ff\J	.	8cc\	.
!	!	!	!	!	!	!	!	!LO:LB:g=original	!
8GG/L	.	8d\L	.	8b\L	.	8ff\L	.	16b\LL	.
.	.	.	.	.	.	.	.	16g\	.
8GG/	.	8d\	.	8b\	.	8ff\	.	16b\	.
.	.	.	.	.	.	.	.	16dd\JJ	.
8GG/	.	8d\	.	8b\	.	8ff\	.	4ff#\	.
8GG/J	.	8d\J	.	8b\J	.	8ff\J	.	.	.
*	*	*	*	*Xtremolo	*	*Xtremolo	*	*	*
=40	=40	=40	=40	=40	=40	=40	=40	=40	=40
!	!	!	!	!LO:TX:a:t=P:problem: mixed beam	!	!LO:TX:a:t=P:problem: mixed beam	!	!	!
8C/L	.	8c\L	.	8cc\L	.	8ee\L	.	16ee\LL	.
.	.	.	.	.	.	.	.	16dd\JJ	.
8C/	.	8c\	.	8cc\	.	8ee\	.	4cc\	.
8C/	.	8c\	.	8c/	.	8e/	.	.	.
8C/J	.	8c\J	.	8cc\J	.	8ee\J	.	8gg\	.
.	.	.	.	.	.	.	.	8qqff/	.
*Xtremolo	*	*Xtremolo	*	*	*	*	*	*	*
8r	.	8r	.	8r	.	8r	.	16ee\LL	.
.	.	.	.	.	.	.	.	16dd\JJ	.
8C/L	.	8c\L	.	8cc\L	.	8ee\L	.	4cc\	.
8D/	.	8d\	.	8cc\	.	8ff\	.	.	.
8E/J	.	8e\J	.	8cc\J	.	8gg\J	.	8b-X\	.
=41	=41	=41	=41	=41	=41	=41	=41	=41	=41
*tremolo	*	*tremolo	*	*	*	*	*	*	*
!	!	!	!	!LO:TX:a:t=P:problem: mixed beam	!	!LO:TX:a:t=P:problem: mixed beam	!	!	!
8F\L	.	8f\L	.	8cc\L	.	8aa\L	.	16a\LL	-be-
.	.	.	.	.	.	.	.	16g\JJ	.
8F\	.	8f\	.	8cc\	.	8aa\	.	4f/	-ris
8F\	.	8f\	.	8c/	.	8a/	.	.	.
8F\J	.	8f\J	.	8cc\J	.	8aa\J	.	8aa\	Co-
.	.	.	.	.	.	.	.	8qqgg/	.
*Xtremolo	*	*Xtremolo	*	*	*	*	*	*	*
8r	.	8r	.	8r	.	8r	.	16ff\LL	-ro-
.	.	.	.	.	.	.	.	16ee\JJ	.
8F\L	.	8f\L	.	8dd\L	.	8ff\L	.	4dd\	.
8F\	.	8f\	.	8dd\	.	8ff\	.	.	.
8F#X\J	.	8f#X\J	.	8cc\J	.	8ee\J	.	8cc\	-na-
=42	=42	=42	=42	=42	=42	=42	=42	=42	=42
*tremolo	*	*tremolo	*	*	*	*	*	*	*
8G\L	.	8g\L	.	8b/	.	8dd\	.	16bn\LL	.
.	.	.	.	.	.	.	.	16a\J	.
8G\	.	8g\	.	4b/	.	4dd\	.	8g\J	.
8G\	.	8g\	.	.	.	.	.	16g\LL	.
.	.	.	.	.	.	.	.	16b\	.
8G\J	.	8g\J	.	8a/	.	8cc\	.	16a\	.
.	.	.	.	.	.	.	.	16cc\JJ	.
8G\L	.	8g\L	.	8g/L	.	8b\L	.	16b\LL	.
.	.	.	.	.	.	.	.	16dd\	.
8G\	.	8g\	.	8a/	.	8cc\	.	16cc\	.
.	.	.	.	.	.	.	.	16ee\JJ	.
8G\	.	8g\	.	8b/	.	8dd\	.	16dd\LL	.
.	.	.	.	.	.	.	.	16ff\	.
8G\J	.	8g\J	.	8cc/J	.	8ee\J	.	16ee\	.
.	.	.	.	.	.	.	.	16gg\JJ	.
!LO:LB:g=original	!	!	!	!	!	!	!	!	!
=43	=43	=43	=43	=43	=43	=43	=43	=43	=43
.	.	.	.	.	.	.	.	8qqgg/	.
8G\L	.	8g\L	.	8dd\	.	8ff\	.	16ff\LL	.
.	.	.	.	.	.	.	.	16ee\JJ	.
8G\	.	8g\	.	4b\	.	4dd\	.	4dd\	.
8G\	.	8g\	.	.	.	.	.	.	.
8G\J	.	8g\J	.	8cc\	.	8ee\	.	8ee\	.
!	!	!	!	!	!	!	!	!LO:LB:g=original	!
8F\L	.	8f\L	.	8dd\L	.	8ff\L	.	8ff\L	.
8F\	.	8f\	.	8ee\J	.	8gg\	.	8gg\	.
8F\	.	8f\	.	4ff\	.	8aa\	.	8aa\	.
8F\J	.	8f\J	.	.	.	8bb\J	.	8bb\J	.
*Xtremolo	*	*Xtremolo	*	*	*	*	*	*	*
=44	=44	=44	=44	=44	=44	=44	=44	=44	=44
8E\L	.	8e\L	.	8gg\L	.	8ccc\L	.	8ccc\L	.
8D\	.	8d\	.	(8ff\	.	(8b\	.	8b\	.
8E\	.	8e\	.	8ee\	.	8cc\	.	8cc\J	.
8F\J	.	8f\J	.	8dd\J)	.	8ff\J)	.	8ff\	.
!LO:TX:a:t=P:problem: mixed beam	!	!LO:TX:a:t=P:problem: mixed beam	!	!	!	!	!	!	!
8G\L	.	8g\L	.	8cc\L	.	8ee\L	.	32ee\LLL	.
.	.	.	.	.	.	.	.	32dd\JJ	.
.	.	.	.	.	.	.	.	8.cc\J	.
8G\	.	8g\	.	8cc\	.	8ee\	.	.	.
8GG/	.	8G/	.	8cc\	.	8dd\	.	4ddT\	-be-
8GG/J	.	8G/J	.	8b\J	.	8dd\J	.	.	.
!	!	!LO:LB:g=original	!	!LO:LB:g=original	!	!LO:LB:g=original	!	!	!
=45	=45	=45	=45	=45	=45	=45	=45	=45	=45
!	!	!	!	!	!LO:DY:a	!	!LO:DY:a:t=f&colon;	!	!
8r	.	8r	.	8cc\L	f	8cc\L	f	4cc\	-ris
8C\L	.	8e\L	.	8gg\J	.	8gg\J	.	.	.
!	!	!	!	!	!	!LO:TX:a:t=P:brak klamry łukowej z kropką przy ozn. trioli	!	!	!
8D\	.	8f\	.	24gg\LL	.	24gg\LL	.	4r	.
.	.	.	.	24ff\	.	24ff\	.	.	.
.	.	.	.	24ee\JJ	.	24ee\JJ	.	.	.
!	!	!	!	!	!	!LO:TX:a:t=P:brak klamry łukowej z kropką przy ozn. trioli	!	!	!
8E\J	.	8g\J	.	24dd\LL	.	24dd\LL	.	.	.
.	.	.	.	24cc\	.	24cc\	.	.	.
.	.	.	.	24b-X\JJ	.	24b-X\JJ	.	.	.
!	!	!	!LO:DY:a	!	!LO:DY:a	!	!	!	!
8F\L	.	8a\L	p	8a/	p	8a/	.	(8cc\	Ve-
8F\	.	8d\	.	4aa\	.	4aa\	.	4aa\)	-ni-
8F#X\	.	8d\	.	.	.	.	.	.	.
!	!	!	!	!	!	!	!	!LO:TX:a:t=P:problem: błąd w tekście	!
8F#\J	.	8d\J	.	8cc\	.	8cc\	.	8cc\	-ni-
=46	=46	=46	=46	=46	=46	=46	=46	=46	=46
!	!	!LO:TX:a:t=P:problem: mixed beam	!	!	!	!	!	!	!
.	.	.	.	8qqcc/	.	8qqcc/	.	8qqcc/	.
*tremolo	*	*	*	*	*	*	*	*	*
8G\L	.	8d\L	.	4bn\	.	4bn\	.	4.b\	-ni
8G\	.	8G/	.	.	.	.	.	.	.
8G\	.	8G/	.	4ff\	.	4ff\	.	.	.
8G\J	.	8G/J	.	.	.	.	.	8r	.
!	!	!	!	!	!	!LO:TX:a:t=P:brak kropki przy ozn. trioli	!	!	!
8G\L	.	8G/L	.	24ee\LL	.	24ee\LL	.	4g/	ve-
.	.	.	.	24dd\	.	24dd\	.	.	.
.	.	.	.	24cc\JJ	.	24cc\JJ	.	.	.
8G\	.	8G/	.	24b\LL	.	24b/LL	.	.	.
.	.	.	.	24a\	.	24a/	.	.	.
.	.	.	.	24g\JJ	.	24g/JJ	.	.	.
8G\	.	8B/	.	8.fT/L	.	8.fT/L	.	4ff\	-ni
8G\J	.	8B/J	.	.	.	.	.	.	.
.	.	.	.	(32e/LL	.	(32e/LL	.	.	.
.	.	.	.	32f/JJJ)	.	32f/JJJ)	.	.	.
=47	=47	=47	=47	=47	=47	=47	=47	=47	=47
8G\L	.	8c/L	.	16e/LL	.	16e/LL	.	4ee\	Co-
.	.	.	.	16g/	.	16g/	.	.	.
8G\	.	8G/	.	16cc/	.	16cc/	.	.	.
.	.	.	.	16g/JJ	.	16g/JJ	.	.	.
.	.	.	.	.	.	.	.	8qqcc/	.
8G\	.	8G/	.	8.ffT\L	.	4ffT\	.	4bn\	-ro-
8G\J	.	8G/J	.	.	.	.	.	.	.
.	.	.	.	32ee\LL	.	.	.	.	.
.	.	.	.	32ff\JJJ	.	.	.	.	.
8G\L	.	8G/L	.	24ee\LL	.	24ee\LL	.	8cc\L	-na-
.	.	.	.	24dd\	.	24dd\	.	.	.
.	.	.	.	24cc\JJ	.	24cc\JJ	.	.	.
8G\	.	8G/	.	24b\LL	.	24b/LL	.	8g\J	.
.	.	.	.	24a\	.	24a/	.	.	.
.	.	.	.	24g\JJ	.	24g/JJ	.	.	.
8G\	.	8Bn/	.	8.fT/L	.	4f/	.	4ff\	.
8G\J	.	8B/J	.	.	.	.	.	.	.
.	.	.	.	32e/LL	.	.	.	.	.
.	.	.	.	32f/JJJ	.	.	.	.	.
=48	=48	=48	=48	=48	=48	=48	=48	=48	=48
8G\L	.	8c/L	.	16e/LL	.	16e/LL	.	4ee\	.
.	.	.	.	16g/JJ	.	16g/	.	.	.
8G\	.	8G/	.	16cc\LL	.	16cc/	.	.	.
.	.	.	.	16g\JJ	.	16g/JJ	.	.	.
.	.	.	.	.	.	.	.	8qqcc/	.
8G\	.	8G/	.	8.ffT\L	.	8.ffT\L	.	4b\	.
8G\J	.	8G/J	.	.	.	.	.	.	.
.	.	.	.	(32ee\LL	.	(32ee\LL	.	.	.
.	.	.	.	32ff\JJJ)	.	32ff\JJJ)	.	.	.
8G\L	.	8G/L	.	24ee\LL	.	24ee\LL	.	8cc\L	.
.	.	.	.	24dd\	.	24dd\	.	.	.
.	.	.	.	24cc\JJ	.	24cc\JJ	.	.	.
8G\	.	8G/	.	24b\LL	.	24b\LL	.	8g\J	.
.	.	.	.	24a\	.	24a\	.	.	.
.	.	.	.	24g\JJ	.	24g\JJ	.	.	.
8G\	.	8B/	.	8.fT/L	.	8.fT/L	.	4ff\	.
8G\J	.	8B/J	.	.	.	.	.	.	.
.	.	.	.	(32e/LL	.	32e/LL	.	.	.
.	.	.	.	32f/JJJ)	.	32f/JJJ	.	.	.
*Xtremolo	*	*	*	*	*	*	*	*	*
=49	=49	=49	=49	=49	=49	=49	=49	=49	=49
!	!	!	!	!LO:TX:a:t=P:problem: mixed beam	!	!LO:TX:a:t=P:problem: mixed beam	!	!	!
8c\L	.	8c\L	.	8e/L	.	8e/L	.	8ee\L	.
8F\	.	8f\	.	8aa\J	.	8aa\J	.	8aa\J	.
8E\	.	8e\	.	16gg\LL	.	(16gg\LL	.	16gg\L	.
.	.	.	.	16ff\	.	16ff\)	.	16ff\J	.
8F\J	.	8a\J	.	16ee\	.	(16ee\	.	16ee\L	.
.	.	.	.	16dd\JJ	.	16dd\JJ)	.	16dd\J	.
!	!	!	!	!	!	!	!	!LO:LB:g=original	!
2G;\	.	4g;\	.	4cc;\	.	4cc;\	.	4cc\	.
.	.	4r	.	4r	.	4r	.	4dd\	-be-
=50	=50	=50	=50	=50	=50	=50	=50	=50	=50
!	!	!	!	!	!LO:DY:a	!	!LO:DY:a:t=for	!	!
8r	.	8r	.	8cc\	f	8cc\	f	4cc\	-ris
8C\L	.	8c\L	.	4ee\	.	4gg\	.	.	.
8E\	.	8e\	.	.	.	.	.	4r	.
8G\J	.	8g\J	.	8dd\	.	8ff\	.	.	.
!LO:TX:a:t=P:problem: mixed beam	!	!	!	!LO:LB:g=original	!	!	!	!	!
.	.	.	.	8qqdd/	.	8qqff/	.	.	.
8c\L	.	8g\	.	4.cc\	.	4.ee\	.	2r	.
8C/J	.	4g\	.	.	.	.	.	.	.
!LO:TX:a:t=P:problem: mixed beam	!	!	!	!	!	!	!	!	!
8G\L	.	.	.	.	.	.	.	.	.
8GG/J	.	8f\	.	8b\	.	8dd\	.	.	.
!	!	!	!	!	!	!LO:LB:g=original	!	!	!
=51	=51	=51	=51	=51	=51	=51	=51	=51	=51
8A\L	.	8e\L	.	8.ccT\L	.	8.ccT\L	.	00r	.
8E\	.	8g\	.	.	.	.	.	.	.
.	.	.	.	(32b\LL	.	(32b\LL	.	.	.
.	.	.	.	32cc\JJJ)	.	32cc\JJJ)	.	.	.
8F\	.	8a\	.	8dd\L	.	8dd\L	.	.	.
8G\J	.	8d\J	.	8b\J	.	8b\J	.	.	.
8r	.	8e\L	.	16cc\LL	.	16cc\LL	.	.	.
.	.	.	.	16g\JJ	.	16g\	.	.	.
8C\L	.	8c\	.	16e/LL	.	16e\	.	.	.
.	.	.	.	16g/JJ	.	16g\JJ	.	.	.
8E\	.	8g\	.	16cc\LL	.	16cc\LL	.	.	.
.	.	.	.	16g\JJ	.	16g\	.	.	.
!	!	!	!	!LO:TX:a:t=P:problem: mixed beam	!	!	!	!	!
8G\J	.	8b\J	.	16dd\LL	.	16dd\	.	.	.
.	.	.	.	16g/JJ	.	16g\JJ	.	.	.
!LO:LB:g=original	!	!	!	!	!	!	!	!	!
=52	=52	=52	=52	=52	=52	=52	=52	=52	=52
!LO:TX:a:t=P:problem: mixed beam	!	!LO:TX:a:t=P:problem: mixed beam	!	!	!	!	!	!	!
8c\L	.	8cc\L	.	16ee\LL	.	16ee\LL	.	.	.
.	.	.	.	16cc\	.	16cc\	.	.	.
8C/	.	8c/	.	16gg\	.	16gg\	.	.	.
.	.	.	.	16ee\JJ	.	16ee\JJ	.	.	.
8E/	.	8g\	.	8ccc\L	.	8ccc\L	.	.	.
8C/J	.	8cc\J	.	8ee\J	.	8ee\J	.	.	.
*tremolo	*	*	*	*	*	*	*	*	*
8G\L	.	8cc\L	.	8eet\L	.	8eet\L	.	.	.
8G\	.	8g\	.	8dd\J	.	8dd\J	.	.	.
8G\	.	8dd\	.	4ff\	.	4ff\	.	.	.
8G\J	.	8g\J	.	.	.	.	.	.	.
!	!	!LO:LB:g=original	!	!	!	!	!	!	!
=53	=53	=53	=53	=53	=53	=53	=53	=53	=53
!	!	!LO:TX:a:t=P:problem: mixed beam	!	!	!	!	!	!	!
8G\L	.	8g\L	.	24ee\LL	.	24ee\LL	.	.	.
.	.	.	.	24dd\	.	24dd\	.	.	.
.	.	.	.	24cc\JJ	.	24cc\JJ	.	.	.
8G\	.	8G/	.	24b\LL	.	24b\LL	.	.	.
.	.	.	.	24a\	.	24a\	.	.	.
.	.	.	.	24g\JJ	.	24g\JJ	.	.	.
8G\	.	8G/	.	8.fT/L	.	8.fT/L	.	.	.
8G\J	.	8G/J	.	.	.	.	.	.	.
.	.	.	.	32e/LL	.	32e/LL	.	.	.
.	.	.	.	32f/JJJ	.	32f/JJJ	.	.	.
*	*	*tremolo	*	*	*	*	*	*	*
8G\L	.	8G/L	.	16e/LL	.	16e/LL	.	.	.
.	.	.	.	16g/	.	16g/	.	.	.
8G\	.	8G/	.	16cc/	.	16cc/	.	.	.
.	.	.	.	16g/JJ	.	16g/JJ	.	.	.
8G\	.	8G/	.	8.ffT\L	.	8.ffT\L	.	.	.
8G\J	.	8G/J	.	.	.	.	.	.	.
.	.	.	.	32ee\LL	.	32ee\LL	.	.	.
.	.	.	.	32ff\JJJ	.	32ff\JJJ	.	.	.
=54	=54	=54	=54	=54	=54	=54	=54	=54	=54
8G\L	.	8G/L	.	24ee\LL	.	24ee\LL	.	.	.
.	.	.	.	24dd\	.	24dd\	.	.	.
.	.	.	.	24cc\JJ	.	24cc\JJ	.	.	.
8G\	.	8G/	.	24b\LL	.	24b/LL	.	.	.
.	.	.	.	24a\	.	24a/	.	.	.
.	.	.	.	24g\JJ	.	24g/JJ	.	.	.
8G\	.	8G/	.	8.fT/L	.	8.fT/L	.	.	.
8G\J	.	8G/J	.	.	.	.	.	.	.
.	.	.	.	(32e/LL	.	32e/LL	.	.	.
.	.	.	.	32f/JJJ)	.	32f/JJJ	.	.	.
8G\L	.	8G/L	.	16e/LL	.	16e/LL	.	.	.
.	.	.	.	16g/	.	16g/	.	.	.
8G\	.	8G/	.	16cc/	.	16cc/	.	.	.
.	.	.	.	16g/JJ	.	16g/JJ	.	.	.
8G\	.	8G/	.	8.ffT\L	.	8.ffT\L	.	.	.
8G\J	.	8G/J	.	.	.	.	.	.	.
.	.	.	.	32ee\LL	.	32ee\LL	.	.	.
.	.	.	.	32ff\JJJ	.	32ff\JJJ	.	.	.
*	*	*Xtremolo	*	*	*	*	*	*	*
=55	=55	=55	=55	=55	=55	=55	=55	=55	=55
8G\L	.	8G/L	.	24ee\LL	.	24ee\LL	.	0r;;	.
.	.	.	.	24dd\	.	24dd\	.	.	.
.	.	.	.	24cc\JJ	.	24cc\JJ	.	.	.
8G\	.	8G/	.	24b\LL	.	24b\LL	.	.	.
.	.	.	.	24a\	.	24a\	.	.	.
.	.	.	.	24g\JJ	.	24g\JJ	.	.	.
8G\	.	8B/	.	8.ffT\L	.	8.ffT\L	.	.	.
8G\J	.	8B/J	.	.	.	.	.	.	.
.	.	.	.	32ee\LL	.	32ee\LL	.	.	.
.	.	.	.	32ff\JJJ	.	32ff\JJJ	.	.	.
*Xtremolo	*	*	*	*	*	*	*	*	*
8G\L	.	8c\L	.	24ee\LL	.	24ee\LL	.	.	.
.	.	.	.	24dd\	.	24dd\	.	.	.
.	.	.	.	24cc\JJ	.	24cc\JJ	.	.	.
8G\	.	8c\	.	24b\LL	.	24b\LL	.	.	.
.	.	.	.	24a\	.	24a\	.	.	.
.	.	.	.	24g\JJ	.	24g\JJ	.	.	.
8G\	.	8d\	.	8.bbt\L	.	8.bbt\L	.	.	.
8F\J	.	8d\J	.	.	.	.	.	.	.
.	.	.	.	32aa\LL	.	32aa\LL	.	.	.
.	.	.	.	32bb\JJJ	.	32bb\JJJ	.	.	.
!	!	!	!	!LO:LB:g=original	!	!LO:LB:g=original	!	!	!
=56	=56	=56	=56	=56	=56	=56	=56	=56	=56
8E\L	.	8e\L	.	8ccc\L	.	8ccc\L	.	.	.
8A\	.	8c\	.	16.cc\L	.	16.cc\L	.	.	.
.	.	.	.	32dd\JJk	.	32dd\JJk	.	.	.
8F\	.	8c\	.	4ddT\	.	4ddT\	.	.	.
8G\J	.	8B\J	.	.	.	.	.	.	.
!	!	!	!	!LO:TX:a:t=P:problem: mixed beam	!	!	!	!	!
4C/	.	4c\	.	8cc\L	.	8cc\L	.	.	.
.	.	.	.	8g/J	.	8g\J	.	.	.
4r;;	.	4r;	.	4c;/	.	4c;;/	.	.	.
=57||	=57||	=57||	=57||	=57|	=57|	=57||	=57||	=57||	=57||
!	!	!	!LO:DY:a	!	!LO:DY:a:t=p&colon;	!	!LO:DY:a:t=p&colon;	!	!
8r	.	2r	p	8a/	p	8a/	p	8a\	te
8AA/L	.	.	.	4cc\	.	(4ee\	.	4ee\	lau-
8C/	.	.	.	.	.	.	.	.	.
8E/J	.	.	.	8b\	.	8dd\)	.	8dd\	.
!LO:TX:a:t=P:problem: mixed beam	!	!	!	!	!	!	!	!	!
.	.	.	.	8qqb/	.	8qqdd/	.	8qqdd/	.
8A\L	.	8A/	.	4.a/	.	4.cc\	.	4.cc\	-da-
8AA/J	.	4e\	.	.	.	.	.	.	.
!LO:TX:a:t=P:problem: mixed beam	!	!	!	!	!	!	!	!	!
8E\L	.	.	.	.	.	.	.	.	.
8EE/J	.	8d\	.	8g#X/	.	8b\	.	8b\	-re
=58	=58	=58	=58	=58	=58	=58	=58	=58	=58
8F\L	.	8c\L	.	8.aT/L	.	8.aT/L	.	8.aT\L	ho-
8C\	.	8e\	.	.	.	.	.	.	.
.	.	.	.	32g#X/LL	.	32g#X/LL	.	32g#X\LL	.
.	.	.	.	32a/JJJ	.	32a/JJJ	.	32a\JJJ	.
8D\	.	8d\	.	8b/L	.	8b/L	.	8b\	.
8E\J	.	8B\J	.	8g#/J	.	8g#X/J	.	8g#X\	-no-
!LO:TX:a:t=P:problem: mixed beam	!	!	!	!	!	!	!	!	!
8AA/L	.	8c\L	.	8a/	.	8a/	.	8.a\L	-ra-
8A\	.	8A\	.	4ee\	.	4ee\	.	.	.
.	.	.	.	.	.	.	.	32b\LL	.
.	.	.	.	.	.	.	.	32cc\JJJ	.
8G#X\	.	8g#X\	.	.	.	.	.	8.b\L	.
8E\J	.	8e\J	.	8e/	.	8e/	.	.	.
.	.	.	.	.	.	.	.	16dd\Jk	.
=59	=59	=59	=59	=59	=59	=59	=59	=59	=59
!LO:TX:a:t=P:problem: mixed beam	!	!LO:TX:a:t=P:problem: mixed beam	!	!	!	!	!	!	!
8A\L	.	8a\L	.	8e/L	.	8e/L	.	8.cc\L	.
8AA/	.	8A/	.	8e/	.	8e/	.	.	.
.	.	.	.	.	.	.	.	16ee\Jk	.
8D/	.	8d\	.	8f/	.	8f/	.	16dd\LL	.
.	.	.	.	.	.	.	.	16cc\	.
8F/J	.	8f\J	.	8e/J	.	8e/J	.	16b\	.
.	.	.	.	.	.	.	.	16a\JJ	.
!LO:TX:a:t=P:problem: mixed beam	!	!LO:TX:a:t=P:problem: mixed beam	!	!	!	!	!	!	!
8E\L	.	8e\L	.	8e/	.	8e/	.	16g#X/LL	.
.	.	.	.	.	.	.	.	16f/JJ	.
8EE/J	.	8E/	.	4g#X/	.	4ee\	.	4e/	.
8E\L	.	8e\	.	.	.	.	.	.	.
8D\J	.	8d\J	.	8b/	.	8g#X/	.	8r	.
=60	=60	=60	=60	=60	=60	=60	=60	=60	=60
8C#X/L	.	8c#X/L	.	4.a/	.	8a\L	.	4.ee\	-te
8AA/	.	8A/	.	.	.	8cc#X\	.	.	.
8BB/	.	8B/	.	.	.	8dd\	.	.	.
8C#/J	.	8c#/J	.	8a/	.	8ee\J	.	8a\	a-
!LO:TX:a:t=P:problem: mixed beam	!	!LO:TX:a:t=P:problem: mixed beam	!	!	!	!	!	!	!
8D\L	.	8d\L	.	8dd\	.	8ff\	.	8ff\	-ma-
8A\	.	8a\	.	4cc#X\	.	4ee\	.	4ee\	-re
8AA/	.	8A/	.	.	.	.	.	.	.
8G\J	.	8g\J	.	8ee\	.	8cc#X\	.	8r	.
!LO:LB:g=original	!	!	!	!	!	!	!	!LO:LB:g=original	!
=61	=61	=61	=61	=61	=61	=61	=61	=61	=61
8F\L	.	8f\	.	8a/	.	8dd\	.	8dd\	te-
8D\	.	4r	.	4ff\	.	4aa\	.	4aa\	.
8F\	.	.	.	.	.	.	.	.	.
8A\J	.	8r	.	8ee\	.	8gg\	.	8gg\	-a-
.	.	.	.	8qqee/	.	8qqgg/	.	8qqgg/	.
!LO:TX:a:t=P:problem: mixed beam	!	!	!	!	!	!	!	!	!
8d\L	.	8d\	.	4.dd\	.	4.ff\	.	4.ff\	-ma-
8D/	.	4a\	.	.	.	.	.	.	.
8A\	.	.	.	.	.	.	.	.	.
8AA/J	.	8g\	.	8cc#X\	.	8ee\	.	8ee\	-re
!	!	!LO:LB:g=original	!	!	!	!	!	!	!
=62	=62	=62	=62	=62	=62	=62	=62	=62	=62
8B-X\L	.	8f\L	.	8.ddT\L	.	8.ddT\L	.	8.ddT\L	ve-
8F\	.	8a\	.	.	.	.	.	.	.
.	.	.	.	(32cc#X\LL	.	(32cc#X\LL	.	(32cc#X\LL	.
.	.	.	.	32dd\JJJ)	.	32dd\JJJ)	.	32dd\JJJ)	.
8G\	.	8a\	.	8ee\L	.	8ee\L	.	8ee\	.
8A\J	.	8e\J	.	8cc#\J	.	8cc#X\J	.	8cc#X\	-ne-
8r	.	8r	.	8dd\	.	8dd\	.	8dd\	-ra-
8D\L	.	8d\L	.	4.ccn\	.	4.ccn\	.	4.ccn\	-ri
8E\	.	8e\	.	.	.	.	.	.	.
8F#X\J	.	8f#X\J	.	.	.	.	.	.	.
!	!	!	!	!LO:LB:g=original	!	!LO:LB:g=original	!	!	!
=63	=63	=63	=63	=63	=63	=63	=63	=63	=63
8r	.	8r	.	8r	.	8b\	.	8b\	ve-
8G\L	.	8g\L	.	8b\L	.	4.ff\	.	4.ff\	.
8A\	.	8a\	.	8cc\	.	.	.	.	.
8B\J	.	8b\J	.	8dd\J	.	.	.	.	.
!LO:TX:a:t=P:problem: mixed beam	!	!LO:TX:a:t=P:problem: mixed beam	!	!	!	!	!	!	!
8c\L	.	8cc\L	.	8ee\L	.	8ee\L	.	8ee\	-ne-
!	!	!	!	!LO:TX:a:t=P:problem: mixed beam	!	!	!	!	!
8C/	.	8c/	.	8ee\	.	16dd\L	.	16dd\LL	-ra-
.	.	.	.	.	.	16cc\JJ	.	16cc\JJ	.
8D/	.	8d/	.	8ffn\	.	8b\L	.	8b\	.
8D/J	.	8d/J	.	8f/J	.	8a\J	.	8a\	.
=64	=64	=64	=64	=64	=64	=64	=64	=64	=64
!LO:TX:a:t=P:problem: mixed beam	!	!LO:TX:a:t=P:problem: mixed beam	!	!	!	!LO:TX:a:t=P:problem: mixed beam	!	!	!
8E\L	.	8e\L	.	8e/L	.	8ee\L	.	16g#X/LL	.
.	.	.	.	.	.	.	.	16f#X/JJ	.
8EE/	.	8E/	.	8g#X/	.	(8e/	.	4e/	-ri
8E\	.	8e\	.	8b/	.	8g#X/)	.	.	.
8Dn\J	.	8e\J	.	8g#/J	.	8b/J	.	8r	.
8C/L	.	8e\	.	8a/	.	8a/	.	8a\	te-
8AA/	.	8r	.	4cc\	.	4ee\	.	4ee\	-lau-
8C/	.	4r	.	.	.	.	.	.	.
8E/J	.	.	.	8b\	.	8dd\	.	8dd\	.
=65	=65	=65	=65	=65	=65	=65	=65	=65	=65
.	.	.	.	8qqb/	.	8qqdd/	.	.	.
!LO:TX:a:t=P:problem: mixed beam	!	!	!	!	!	!	!	!	!
8A\L	.	8A/	.	4.a/	.	4.cc\	.	4.cc\	-da-
8AA/	.	4e\	.	.	.	.	.	.	.
8E\	.	.	.	.	.	.	.	.	.
8EE/J	.	8d\	.	8g#X/	.	8b\	.	8b\	.
!	!	!	!	!	!	!	!	!LO:LB:g=original	!
8F\L	.	8c\L	.	8.aT/L	.	8.aT/L	.	8.aT\L	.
8C\	.	8e\	.	.	.	.	.	.	.
.	.	.	.	32g#/LL	.	32g#X/LL	.	(32g#X\LL	.
.	.	.	.	32a/JJJ	.	32a/JJJ	.	32a\JJJ)	.
8D\	.	8d\	.	8b/L	.	8b/L	.	8b\	.
8E\J	.	8B\J	.	8g#/J	.	8g#X/J	.	8g#\	.
=66	=66	=66	=66	=66	=66	=66	=66	=66	=66
!LO:TX:a:t=P:problem: mixed beam	!	!	!	!	!	!	!	!	!
8A\L	.	8c\L	.	8a/	.	8a/	.	8.a\L	.
8AA/	.	8A\J	.	4e/	.	4e/	.	.	.
.	.	.	.	.	.	.	.	16cc\Jk	.
8G#X\	.	8g#X\L	.	.	.	.	.	8.b\L	-re
8E\J	.	8e\J	.	8g#X/	.	8b\	.	.	.
.	.	.	.	.	.	.	.	16dd\Jk	.
8A\L	.	8a\L	.	8a/	.	(8cc\	.	8dd\	dig-
8Gn\	.	8gn\	.	4.b-X/	.	4.cc#X\)	.	4.cc#X\	-num
8G\	.	8g\	.	.	.	.	.	.	.
8G\J	.	8g\J	.	.	.	.	.	.	.
=67	=67	=67	=67	=67	=67	=67	=67	=67	=67
8F#X\L	.	8f#X\L	.	8a/	.	(8dd\	.	8dd\	est
8Fn\	.	8fn\	.	4.a/	.	4dd#X\)	.	4.dd#X\	lau-
8F\	.	8f\	.	.	.	.	.	.	.
8F\J	.	8f\J	.	.	.	8ee\	.	.	.
4E\	.	4e\	.	8g#X/	.	4ffn\	.	8ee\	-da-
.	.	.	.	4a/	.	.	.	4ff\	.
4D\	.	4d\	.	.	.	8gg#X\	.	.	.
!	!	!	!	!	!	!LO:TX:a:t=P:problem:niepełna miara taktu	!	!	!
.	.	.	.	8bn\	.	8aa\yy	.	8gg#X\	.
=68	=68	=68	=68	=68	=68	=68	=68	=68	=68
*	*	*	*	*	*	*	*	*2\right	*
8C/L	.	8c/L	.	8cc\L	.	8aa\L	.	2aa\	.
8BB/	.	8B/	.	8dd\	.	16ggn\L	.	.	.
.	.	.	.	.	.	16ff\JJ	.	.	.
8C/	.	8c/	.	8cc\	.	8ee\L	.	.	.
8D/J	.	8d/J	.	8b\J	.	8dd\J	.	.	.
2E;\	.	2e\	.	4a/	.	4cc;\	.	4a\	.
.	.	.	.	4r;	.	4rg	.	4b\	.
!LO:LB:g=original	!	!	!	!	!	!	!	!	!
=69	=69	=69	=69	=69	=69	=69	=69	=69	=69
4A\	.	4A/	.	4r	.	4r	.	4a\	-re
!	!	!	!	!	!LO:DY:a:t=for	!	!LO:DY:a:t=for	!	!
8r	.	8r	.	4ff\	f	4ff\	f	4r	.
!	!LO:DY:a:t=for	!	!	!	!	!	!	!	!
8G\	f	8g\	.	.	.	.	.	.	.
!LO:TX:a:t=P:problem: mixed beam	!	!LO:TX:a:t=P:problem: mixed beam	!	!	!	!LO:TX:a:t=P:brak kropki przy ozn. trioli	!	!	!
8c\L	.	8g\L	.	24ee\LL	.	24ee\LL	.	2r	.
.	.	.	.	24dd\	.	24dd\	.	.	.
.	.	.	.	24cc\JJ	.	24cc\JJ	.	.	.
!	!	!	!	!LO:TX:a:t=P:problem:brak klamry łukowej z kropką	!	!LO:TX:a:t=P:brak kropki przy ozn. trioli	!	!	!
8C/	.	8G/	.	24b\LL	.	24b\LL	.	.	.
.	.	.	.	24a\	.	24a\	.	.	.
.	.	.	.	24g\JJ	.	24g\JJ	.	.	.
8G\	.	8G/	.	8.fT/L	.	8.fT/	.	.	.
8G\J	.	8G/J	.	.	.	.	.	.	.
!	!	!	!	!	!	!LO:TX:a:t=P:problem: końcówka taktu zamazana	!	!	!
.	.	.	.	32e/LL	.	16r	.	.	.
.	.	.	.	32f/JJJ	.	.	.	.	.
!	!	!	!	!LO:LB:g=original	!	!LO:LB:g=original	!	!	!
=70	=70	=70	=70	=70	=70	=70	=70	=70	=70
*	*	*tremolo	*	*	*	*	*	*	*
8G\L	.	8G/L	.	16e/LL	.	16e/LL	.	0r	.
.	.	.	.	16g/JJ	.	16g/	.	.	.
8G\	.	8G/	.	16cc\LL	.	16cc/	.	.	.
.	.	.	.	16g\JJ	.	16g/JJ	.	.	.
8G\	.	8G/	.	8.ffT\L	.	8.ffT\L	.	.	.
8G\J	.	8G/J	.	.	.	.	.	.	.
.	.	.	.	(32ee\LL	.	(32ee\LL	.	.	.
.	.	.	.	32ff\JJJ)	.	32ff\JJJ)	.	.	.
8G\L	.	8G/L	.	24ee\LL	.	24ee\LL	.	.	.
.	.	.	.	24dd\	.	24dd\	.	.	.
.	.	.	.	24cc\JJ	.	24cc\JJ	.	.	.
8G\	.	8G/	.	24b\LL	.	24b\LL	.	.	.
.	.	.	.	24a\	.	24a\	.	.	.
.	.	.	.	24g\JJ	.	24g\JJ	.	.	.
8G\	.	8G/	.	8.fT/L	.	8.fT/L	.	.	.
8G\J	.	8G/J	.	.	.	.	.	.	.
.	.	.	.	(32e/LL	.	(32e/LL	.	.	.
.	.	.	.	32f/JJJ)	.	32f/JJJ)	.	.	.
=71	=71	=71	=71	=71	=71	=71	=71	=71	=71
8G\L	.	8G/L	.	16e/LL	.	16e/LL	.	.	.
.	.	.	.	16g/	.	16g/	.	.	.
8G\	.	8G/	.	16cc/	.	16cc/	.	.	.
.	.	.	.	16g/JJ	.	16g/JJ	.	.	.
8G\	.	8G/	.	8.ffT\L	.	8.ffT\L	.	.	.
8G\J	.	8G/J	.	.	.	.	.	.	.
.	.	.	.	(32ee\LL	.	(32ee\LL	.	.	.
.	.	.	.	32ff\JJJ)	.	32ff\JJJ)	.	.	.
*	*	*Xtremolo	*	*	*	*	*	*	*
8G\L	.	8G/L	.	24ee\LL	.	24ee\LL	.	.	.
.	.	.	.	24dd\	.	24dd\	.	.	.
.	.	.	.	24cc\JJ	.	24cc\JJ	.	.	.
8G\	.	8G/	.	24b\LL	.	24b\LL	.	.	.
.	.	.	.	24a\	.	24a\	.	.	.
.	.	.	.	24g\JJ	.	24g\JJ	.	.	.
8G\	.	8B/	.	8.ffT\L	.	8.ffT\L	.	.	.
8G\J	.	8B/J	.	.	.	.	.	.	.
.	.	.	.	(32ee\LL	.	(32ee\LL	.	.	.
.	.	.	.	32ff\JJJ)	.	32ff\JJJ)	.	.	.
=72	=72	=72	=72	=72	=72	=72	=72	=72	=72
8G\L	.	8c\L	.	24ee\LL	.	24ee\LL	.	1r	.
.	.	.	.	24dd\	.	24dd\	.	.	.
.	.	.	.	24cc\JJ	.	24cc\JJ	.	.	.
8G\	.	8c\	.	24b\LL	.	24b\LL	.	.	.
.	.	.	.	24a\	.	24a\	.	.	.
.	.	.	.	24g\JJ	.	24g\JJ	.	.	.
8G\	.	8d\	.	8.bbt\L	.	8.bbt\L	.	.	.
8F\J	.	8d\J	.	.	.	.	.	.	.
.	.	.	.	(32aa\LL	.	(32aa\LL	.	.	.
.	.	.	.	32bb\JJJ)	.	32bb\JJJ)	.	.	.
8E\L	.	8e\L	.	8ccc\L	.	8ccc\L	.	.	.
8A\	.	8c\	.	16.cc\L	.	16.cc\L	.	.	.
.	.	.	.	32dd\JJk	.	32dd\JJk	.	.	.
8F\	.	8c\	.	4ddT\	.	4ddT\	.	.	.
8G\J	.	8B\J	.	.	.	.	.	.	.
=73	=73	=73	=73	=73	=73	=73	=73	=73	=73
4C/	.	4c\	.	8cc\L	.	8cc\L	.	2r	.
.	.	.	.	8g\J	.	8g\J	.	.	.
4r	.	4r	.	4c/	.	4c/	.	.	.
!LO:TX:a:t=Dal Segno	!	!LO:TX:a:t=Da Segno	!	!LO:TX:a:t=Da Capo Ad Signu	!	!LO:TX:a:t=Da Capo a Signo	!	!LO:TX:a:t=Dal Segno	!
!LO:TX:a:t=[segno]	!	!LO:TX:a:t=[segno]	!	!LO:TX:a:t=[segno]	!	!LO:TX:a:t=[segno]	!	!LO:TX:a:t=[segno]	!
!LO:PB:g=original	!	!LO:PB:g=original	!	!LO:PB:g=original	!	!LO:PB:g=original	!	!LO:PB:g=original	!
=74||	=74||	=74||	=74||	=74||	=74||	=74||	=74||	=74||	=74:|!
*k[f#c#]	*	*k[f#c#]	*	*k[f#c#]	*	*k[f#c#]	*	*k[f#c#]	*
*M3/8	*	*M3/8	*	*M3/8	*	*M3/8	*	*M3/8	*
*>C	*	*>C	*	*>C	*	*>C	*	*>C	*
!LO:TX:a:t=P:problem:alternatywny zapis części Allo na s.18 źródła	!	!	!	!LO:TX:a:t=P:problem:alternatywny zapis części Allo na s.16 źródła	!	!LO:TX:a:t=P:problem:alternatywny zapis części Allo na s.14 źródła	!	!LO:TX:a:t=P:problem:alternatywny zapis części Allo na s.12 źródła	!
!LO:TX:a:t=Allo&colon; non molto	!	!	!	!LO:TX:a:t=Allo&colon; non molto	!	!LO:TX:a:t=Allo&colon; non molto	!	!LO:TX:a:t=27	!
!LO:TX:a:t=Aria 2	!	!	!	!	!	!	!	!LO:N:vis=00	!
4.AA/	.	4.ryy	.	4.a/	.	4.a/	.	1.r	.
=75	=75	=75	=75	=75	=75	=75	=75	=75	=75
8A\	.	4.ryy	.	8cc#\	.	8cc#\	.	.	.
4B\	.	.	.	4dd\	.	4dd\	.	.	.
=76	=76	=76	=76	=76	=76	=76	=76	=76	=76
8c#\L	.	4.ryy	.	8ee\L	.	8ee\L	.	.	.
8d\	.	.	.	8ff#\	.	8ff#\	.	.	.
8B\J	.	.	.	8gg#X\J	.	8gg#X\J	.	.	.
=77	=77	=77	=77	=77	=77	=77	=77	=77	=77
!	!	!	!	!LO:TX:a:t=P:problem: mixed beam	!	!LO:TX:a:t=P:problem: mixed beam	!	!	!
8A\L	.	4.ryy	.	8aa\L	.	8aa\L	.	.	.
8c#\	.	.	.	8a/J	.	8a/J	.	.	.
8A\J	.	.	.	16r	.	16r	.	.	.
.	.	.	.	16ee\	.	16ee\	.	.	.
=78	=78	=78	=78	=78	=78	=78	=78	=78	=78
!	!	!	!	!	!	!	!	!LO:N:vis=00	!
4d\	.	4.ryy	.	24ff#\LL	.	24ff#\LL	.	1.r	.
.	.	.	.	24ee\	.	24ee\	.	.	.
.	.	.	.	24dd\JJ	.	24dd\JJ	.	.	.
.	.	.	.	8dd\L	.	8dd\L	.	.	.
8r	.	.	.	16r	.	16r	.	.	.
.	.	.	.	16b\Jk	.	16b\Jk	.	.	.
=79	=79	=79	=79	=79	=79	=79	=79	=79	=79
4c#\	.	4.ryy	.	24ee\LL	.	24ee\LL	.	.	.
.	.	.	.	24dd\	.	24dd\	.	.	.
.	.	.	.	24cc#\JJ	.	24cc#\JJ	.	.	.
.	.	.	.	8cc#\L	.	8cc#\L	.	.	.
8r	.	.	.	16r	.	16r	.	.	.
.	.	.	.	16a\Jk	.	16a\Jk	.	.	.
=80	=80	=80	=80	=80	=80	=80	=80	=80	=80
8d\L	.	4.ryy	.	4b\	.	4b\	.	.	.
8B\	.	.	.	.	.	.	.	.	.
8e\J	.	.	.	16cc#\LL	.	16cc#\LL	.	.	.
.	.	.	.	16dd\JJ	.	16dd\JJ	.	.	.
=81	=81	=81	=81	=81	=81	=81	=81	=81	=81
8A\L	.	4.ryy	.	4cc#\	.	4cc#\	.	.	.
8c#\	.	.	.	.	.	.	.	.	.
8B\J	.	.	.	8r	.	8r	.	.	.
=82	=82	=82	=82	=82	=82	=82	=82	=82	=82
!	!	!	!	!	!	!	!	!LO:N:vis=00	!
8A\L	.	4.ryy	.	16cc#\LL	.	16cc#\LL	.	1.r	.
.	.	.	.	16a\	.	16a\	.	.	.
8A\	.	.	.	16ee\	.	16ee\	.	.	.
.	.	.	.	16cc#\	.	16cc#\	.	.	.
8A\J	.	.	.	16b\	.	16b\	.	.	.
.	.	.	.	16a\JJ	.	16a\JJ	.	.	.
=83	=83	=83	=83	=83	=83	=83	=83	=83	=83
8E\L	.	4.ryy	.	16b/LL	.	16b\LL	.	.	.
.	.	.	.	16e/	.	16e\	.	.	.
8E\	.	.	.	16b/	.	16b\	.	.	.
.	.	.	.	16dd/JJ	.	16dd\	.	.	.
8E\J	.	.	.	16cc#\LL	.	16cc#\	.	.	.
.	.	.	.	16b\JJ	.	16b\JJ	.	.	.
=84	=84	=84	=84	=84	=84	=84	=84	=84	=84
!	!	!	!	!	!LO:DY:a	!	!	!	!
8A\L	.	4.ryy	.	16cc#\LL	p	16cc#\LL	.	.	.
.	.	.	.	16a\	.	16a\	.	.	.
8A\	.	.	.	16ee\	.	16ee\	.	.	.
.	.	.	.	16cc#\	.	16cc#\	.	.	.
8A\J	.	.	.	16b\	.	16b\	.	.	.
.	.	.	.	16a\JJ	.	16a\JJ	.	.	.
=85	=85	=85	=85	=85	=85	=85	=85	=85	=85
8E\L	.	4.ryy	.	16b/LL	.	16b/LL	.	.	.
.	.	.	.	16e/	.	16e/	.	.	.
8E\	.	.	.	16b/	.	16b/	.	.	.
.	.	.	.	16dd/	.	16dd/	.	.	.
8E\J	.	.	.	16cc#/	.	16cc#/	.	.	.
.	.	.	.	16b/JJ	.	16b/JJ	.	.	.
=86	=86	=86	=86	=86	=86	=86	=86	=86	=86
!LO:TX:a:t=P:problem: mixed beam	!	!	!	!	!LO:DY:a	!	!	!LO:N:vis=00	!
!	!	!	!	!LO:TX:a:t=P:problem: mixed beam	!	!LO:TX:a:t=P:problem: mixed beam	!	!	!
8A\L	.	4.ryy	.	8aa\L	f	8aa\L	.	1.r	.
8AA/	.	.	.	8a/	.	8a/	.	.	.
8AA/J	.	.	.	8a/J	.	8a/J	.	.	.
!	!	!	!	!	!	!LO:LB:g=original	!	!	!
=87	=87	=87	=87	=87	=87	=87	=87	=87	=87
4AA/	.	4.ryy	.	4a/	.	4a/	.	.	.
8r	.	.	.	8aa\	.	8aa\	.	.	.
=88	=88	=88	=88	=88	=88	=88	=88	=88	=88
8E\L	.	4.ryy	.	24gg#X\LL	.	24gg#X\LL	.	.	.
.	.	.	.	24ff#\	.	24ff#\	.	.	.
.	.	.	.	24ee\JJ	.	24ee\JJ	.	.	.
8G#X\	.	.	.	4ee\	.	4ee\	.	.	.
8E\J	.	.	.	.	.	.	.	.	.
!	!	!	!	!LO:LB:g=original	!	!	!	!	!
=89	=89	=89	=89	=89	=89	=89	=89	=89	=89
!LO:TX:a:t=P:problem: mixed beam	!	!	!	!LO:TX:a:t=P:problem: mixed beam	!LO:DY:a	!LO:TX:a:t=P:problem: mixed beam	!LO:DY:a	!	!
8A\L	.	4.ryy	.	8aa\L	p	8aa\L	p	.	.
8AA/	.	.	.	8a/	.	8a/	.	.	.
8AA/J	.	.	.	8a/J	.	8a/J	.	.	.
=90	=90	=90	=90	=90	=90	=90	=90	=90	=90
!	!	!	!	!	!	!	!	!LO:N:vis=00	!
4AA/	.	4.ryy	.	4a/	.	4a/	.	1.r	.
8r	.	.	.	8aa\	.	8aa\	.	.	.
=91	=91	=91	=91	=91	=91	=91	=91	=91	=91
!	!	!	!	!	!	!LO:TX:a:t=P:brak klamry łukowej z kropką przy ozn. trioli	!	!	!
8E\L	.	4.ryy	.	24gg#X\LL	.	24gg#X\LL	.	.	.
.	.	.	.	24ff#\	.	24ff#\	.	.	.
.	.	.	.	24ee\JJ	.	24ee\JJ	.	.	.
8G#X\	.	.	.	4ee\	.	4ee\	.	.	.
8E\J	.	.	.	.	.	.	.	.	.
!LO:LB:g=original	!	!	!	!	!	!	!	!	!
=92	=92	=92	=92	=92	=92	=92	=92	=92	=92
!	!	!	!	!	!LO:DY:a:t=for	!	!LO:DY:a:t=for	!	!
8AA/L	.	4.ryy	.	8cc#\L	f	8cc#\L	f	.	.
8AA/	.	.	.	16cc#\L	.	16cc#\L	.	.	.
.	.	.	.	16a\	.	16a\	.	.	.
8BB/J	.	.	.	16dd\	.	16dd\	.	.	.
.	.	.	.	16b\JJ	.	16b\JJ	.	.	.
=93	=93	=93	=93	=93	=93	=93	=93	=93	=93
8C#/L	.	4.ryy	.	8ee\L	.	8ee\L	.	.	.
8C#/	.	.	.	16ee\L	.	16ee\L	.	.	.
.	.	.	.	16cc#\	.	16cc#\	.	.	.
8D/J	.	.	.	16ff#\	.	16ff#\	.	.	.
.	.	.	.	16dd\JJ	.	16dd\JJ	.	.	.
=94	=94	=94	=94	=94	=94	=94	=94	=94	=94
!	!	!	!	!	!	!	!	!LO:N:vis=00	!
8C#/L	.	4.ryy	.	8aa\L	.	8aa\L	.	1.r	.
8C#/	.	.	.	16aa\L	.	16aa\L	.	.	.
.	.	.	.	16ee\	.	16ee\	.	.	.
8D/J	.	.	.	16ff#\	.	16ff#\	.	.	.
.	.	.	.	16dd\JJ	.	16dd\JJ	.	.	.
=95	=95	=95	=95	=95	=95	=95	=95	=95	=95
8C#/L	.	4.ryy	.	16ee\LL	.	16ee\LL	.	.	.
.	.	.	.	16cc#\JJ	.	16cc#\JJ	.	.	.
8BB/	.	.	.	16dd\LL	.	16dd\LL	.	.	.
.	.	.	.	16b\JJ	.	16b\JJ	.	.	.
8AA/J	.	.	.	16cc#\LL	.	16cc#\LL	.	.	.
.	.	.	.	16a\JJ	.	16a\JJ	.	.	.
=96	=96	=96	=96	=96	=96	=96	=96	=96	=96
!LO:TX:a:t=P:problem: mixed beam	!	!	!	!	!	!	!	!	!
8E/L	.	4.ryy	.	16e/LL	.	16e/LL	.	.	.
.	.	.	.	16a/JJ	.	16a/JJ	.	.	.
8EE/	.	.	.	4bT\	.	4bT\	.	.	.
8EE/J	.	.	.	.	.	.	.	.	.
=97	=97	=97	=97	=97	=97	=97	=97	=97	=97
!	!	!	!	!	!	!	!LO:DY:a:t=p&colon;	!	!
8AA/L	.	4.ryy	.	8aa\L	.	8aa\L	p	.	.
8C#/	.	.	.	16aa\L	.	16aa\L	.	.	.
.	.	.	.	16ee\	.	16ee\	.	.	.
8D/J	.	.	.	16ff#\	.	16ff#\	.	.	.
.	.	.	.	16dd\JJ	.	16dd\JJ	.	.	.
=98	=98	=98	=98	=98	=98	=98	=98	=98	=98
!	!	!	!	!	!	!	!	!LO:N:vis=0	!
8C#/L	.	4.ryy	.	16ee\LL	.	16ee\LL	.	2.r	.
.	.	.	.	16cc#\	.	16cc#\JJ	.	.	.
8BB/	.	.	.	16dd\	.	16dd\LL	.	.	.
.	.	.	.	16b\	.	16b\JJ	.	.	.
8AA/J	.	.	.	16cc#\	.	16cc#\LL	.	.	.
.	.	.	.	16a\JJ	.	16a\JJ	.	.	.
=99	=99	=99	=99	=99	=99	=99	=99	=99	=99
!LO:TX:a:t=P:problem: mixed beam	!	!	!	!	!	!	!	!	!
8E\L	.	4.ryy	.	16e/LL	.	16e/LL	.	.	.
.	.	.	.	16a/JJ	.	16a/JJ	.	.	.
8EE/	.	.	.	4bT\	.	4bT\	.	.	.
8EE/J	.	.	.	.	.	.	.	.	.
=100	=100	=100	=100	=100	=100	=100	=100	=100	=100
!	!	!	!	!	!LO:DY:a	!	!	!	!
4AA/	.	4.ryy	.	8a/L	f	8a/L	.	4.r	.
.	.	.	.	8A/J	.	8A;/J	.	.	.
8r	.	.	.	8r	.	8r	.	.	.
=101	=101	=101	=101	=101	=101	=101	=101	=101	=101
!	!	!	!	!	!LO:DY:a:t=p&colon;	!	!LO:DY:a:t=p&colon;	!LO:TX:a:t=d	!
4.r	.	4.ryy	.	4.a/	p	4.a/	p	4.a\	Ju-
!	!	!	!	!	!	!LO:LB:g=original	!	!	!
=102	=102	=102	=102	=102	=102	=102	=102	=102	=102
!	!LO:DY:a:t=p&colon;	!	!	!	!	!	!	!	!
8A\	p	4.ryy	.	8cc#\	.	8cc#\	.	8cc#\	.
4B\	.	.	.	4dd\	.	4dd\	.	4dd\	-stus
=103	=103	=103	=103	=103	=103	=103	=103	=103	=103
8c#\L	.	4.ryy	.	8ee\L	.	8ee\L	.	8ee\L	Ju-
8d\	.	.	.	8ff#\	.	8ff#\	.	8ff#\	-stuſ
8B\J	.	.	.	8gg#X\J	.	8gg#X\J	.	8gg#X\J	ut
=104	=104	=104	=104	=104	=104	=104	=104	=104	=104
!	!	!	!	!LO:TX:a:t=P:problem: mixed beam	!	!LO:TX:a:t=P:problem: mixed beam	!	!LO:TX:a:t=P:problem: mixed beam	!
8A\L	.	4.ryy	.	8aa\L	.	8aa\L	.	8aa\L	Pal-
8c#\	.	.	.	8a/J	.	8a/J	.	8a/J	-ma
8A\J	.	.	.	16r	.	16r	.	16r	.
.	.	.	.	16cc#\	.	16ee\	.	16ee\	flo-
!	!	!	!	!LO:LB:g=original	!	!	!	!	!
=105	=105	=105	=105	=105	=105	=105	=105	=105	=105
4d\	.	4.ryy	.	4dd\	.	4ff#\	.	16ff#\LL	-re-
.	.	.	.	.	.	.	.	16ee\J	.
.	.	.	.	.	.	.	.	8dd\J	-bit
8r	.	.	.	8r	.	8r	.	16r	.
*	*	*	*	*	*	*	*	*	*ij
.	.	.	.	.	.	.	.	16b\	flo-
=106	=106	=106	=106	=106	=106	=106	=106	=106	=106
4c#\	.	4.ryy	.	4cc#\	.	4ee\	.	16ee\LL	-re-
.	.	.	.	.	.	.	.	16dd\J	.
.	.	.	.	.	.	.	.	8cc#\J	-bit
*	*	*	*	*	*	*	*	*	*Xij
8r	.	.	.	8r	.	8r	.	16r	.
.	.	.	.	.	.	.	.	16a\	flo-
=107	=107	=107	=107	=107	=107	=107	=107	=107	=107
8d\L	.	4.ryy	.	4b\	.	4b\	.	4b\	-re-
8B\	.	.	.	.	.	.	.	.	.
8e\J	.	.	.	16cc#\LL	.	16cc#\LL	.	16cc#\LL	.
.	.	.	.	16dd\JJ	.	16dd\JJ	f	16dd\JJ	.
=108	=108	=108	=108	=108	=108	=108	=108	=108	=108
!	!	!	!	!	!LO:DY:a:t=f&colon;	!	!	!	!
4A\	.	4.ryy	.	16cc#\LL	f	16cc#\LL	.	4cc#\	-bit
.	.	.	.	16aa\	.	16aa\	.	.	.
.	.	.	.	16gg#X\	.	16gg#X\	.	.	.
.	.	.	.	16aa\	.	16aa\	.	.	.
8r	.	.	.	16gg#\	.	16gg#\	.	8r	.
.	.	.	.	16aa\JJ	.	16aa\JJ	.	.	.
=109	=109	=109	=109	=109	=109	=109	=109	=109	=109
!	!	!	!	!	!LO:DY:a	!	!LO:DY:a	!	!
4A\	.	4.ryy	.	8a\L	p	8a\L	p	8a\L	et
.	.	.	.	16b\L	.	16b\L	.	(16b\L	.
.	.	.	.	16cc#\	.	16cc#\	.	16cc#\JJ)	.
!	!	!	!	!	!	!	!	!LO:TX:a:t=P:problem: przepełniona miara taktu	!
!	!	!	!	!	!	!	!	!LO:N:vis=8	!
8r	.	.	.	16dd\	.	16dd\	.	16dd\LL	.
!	!	!	!	!	!	!	!	!LO:N:vis=8	!
.	.	.	.	16ee\JJ	.	16ee\JJ	.	16ee\JJ	.
=110	=110	=110	=110	=110	=110	=110	=110	=110	=110
8D\L	.	4.ryy	.	8ff#\	.	8ff#\	.	8ff#\	si-
8BB\	.	.	.	4gg#X\	.	4gg#X\	.	4gg#X\	-cut
8E\J	.	.	.	.	.	.	.	.	.
=111	=111	=111	=111	=111	=111	=111	=111	=111	=111
!	!	!	!	!LO:TX:a:t=P:problem: mixed beam	!	!LO:TX:a:t=P:problem: mixed beam	!	!LO:TX:a:t=P:problem: mixed beam	!
4AA/	.	4.ryy	.	8ee\L	.	8aa\L	.	8aa\L	Ced-
.	.	.	.	8e/J	.	8a/J	.	8a/J	-rus
!	!	!	!	!	!LO:DY:a	!	!LO:DY:a	!	!
8r	.	.	.	8ee\	f	8aa\	f	8r	.
!	!	!	!	!	!	!	!	!LO:LB:g=original	!
=112	=112	=112	=112	=112	=112	=112	=112	=112	=112
!	!	!	!	!	!LO:DY:a:t=p&colon;	!	!LO:DY:a	!	!
4A\	.	4.ryy	.	8.cc#\L	p	8.ee\L	p	8.ee\L	et
!	!	!	!	!	!	!LO:TX:a:t=P:problem: przepełniona miara taktu	!	!	!
!	!	!	!	!	!	!LO:N:vis=8	!	!	!
.	.	.	.	16dd\K	.	16ff#\K	.	16ff#\K	.
8r	.	.	.	8cc#\J	.	8ee\J	.	8ee\J	.
!LO:LB:g=original	!	!	!	!	!	!	!	!	!
=113	=113	=113	=113	=113	=113	=113	=113	=113	=113
8B\L	.	4.ryy	.	8g#X/	.	8dd\L	.	8dd\	si-
8A\	.	.	.	4a/	.	8cc#\J	.	4cc#\	-cut
!	!	!	!	!	!	!	!LO:DY:a	!	!
8D#X\J	.	.	.	.	.	8aa\	f	.	.
=114	=114	=114	=114	=114	=114	=114	=114	=114	=114
!LO:TX:a:t=P:problem: mixed beam	!	!	!	!	!	!	!LO:DY:a	!	!
8E\L	.	4.ryy	.	8cc#\L	.	8cc#\L	p	8cc#\L	Ced-
!	!	!	!	!	!LO:DY:a	!	!	!	!
8EE/J	.	.	.	8b\J	f	8b\J	.	8b\J	-rus
!	!	!	!	!	!	!	!LO:DY:a	!	!
8r	.	.	.	8ee\	.	8ee\	f	8r	.
=115	=115	=115	=115	=115	=115	=115	=115	=115	=115
!	!	!	!	!	!LO:DY:a	!	!	!	!
4E\	.	4.ryy	.	8b\L	p	8b\L	.	8b\L	Li-
.	.	.	.	16cc#\L	.	16cc#\L	.	16cc#\L	.
.	.	.	.	16dd#X\	.	16dd#X\	.	16dd#X\JJ	.
8r	.	.	.	16ee\	.	16ee\	.	16ee\LL	.
.	.	.	.	16ff#\JJ	.	16ff#\JJ	.	16ff#\JJ	.
=116	=116	=116	=116	=116	=116	=116	=116	=116	=116
!LO:TX:a:t=P:problem: mixed beam	!	!	!	!	!	!	!	!	!
8E\L	.	4.ryy	.	8ee\	.	8gg#X\	.	8gg#X\	.
.	.	.	.	.	.	8qqgg#/	.	.	.
8B\	.	.	.	4dd#X\	.	4ff#\	.	4ff#\	.
8BB/J	.	.	.	.	.	.	.	.	.
=117	=117	=117	=117	=117	=117	=117	=117	=117	=117
4E\	.	4.ryy	.	16ee\LL	.	16gg#X\LL	.	16gg#X\LL	ba-
.	.	.	.	16dd#X\J	.	16ff#\J	.	16ff#`\J	.
.	.	.	.	8ee\J	.	8ee\J	.	8ee`\J	-ni
!	!	!	!	!	!LO:DY:a	!	!LO:DY:a	!	!
8r	.	.	.	8gg#X\	f	8bb\	f	8r	.
!	!	!	!	!	!	!LO:LB:g=original	!	!	!
=118	=118	=118	=118	=118	=118	=118	=118	=118	=118
!	!	!	!	!	!LO:DY:a	!	!LO:DY:a	!	!
8G#X\L	.	4.ryy	.	8b\L	p	8b\L	p	8b`\L	mul-
8G#\	.	.	.	8ee\	.	8ee\	.	8ee`\	-ti-
8G#\J	.	.	.	8b\J	.	8b\J	.	8b`\J	-pli
=119	=119	=119	=119	=119	=119	=119	=119	=119	=119
*	*	*	*	*	*	*	*	*Xtuplet	*
!	!	!	!	!	!	!	!	!LO:TX:a:t=P:problem:brak oznaczenia trioli, klamra łukowa nad triolą:global	!
8A\L	.	4.ryy	.	8e/	.	24cc#\LL	.	(24cc#\LL	ca-
.	.	.	.	.	.	24b\	.	24b\	.
.	.	.	.	.	.	24a\JJ	.	24a\JJ)	.
!	!	!	!	!LO:TX:a:t=P:problem:brak kropki nad triolą	!	!	!	!	!
8A\	.	.	.	(24cc#\LL	.	4a/	.	4a\	.
.	.	.	.	24b\	.	.	.	.	.
.	.	.	.	24a\JJ)	.	.	.	.	.
8A\J	.	.	.	8a/	.	.	.	.	.
!	!	!	!	!LO:LB:g=original	!	!	!	!	!
=120	=120	=120	=120	=120	=120	=120	=120	=120	=120
8A\L	.	4.ryy	.	8a/	.	24a\LL	.	8a\L	.
.	.	.	.	.	.	24b\	.	.	.
.	.	.	.	.	.	24cc#\JJ	.	.	.
!	!	!	!	!LO:TX:a:t=P:problem:brak kropki nad triolą	!	!	!	!	!
8A\	.	.	.	24a\LL	.	24cc#\LL	.	8cc#\	.
.	.	.	.	24b\	.	24dd\	.	.	.
.	.	.	.	24cc#\JJ	.	24ee\JJ	.	.	.
8A\J	.	.	.	8cc#\	.	8ee\	.	8ee\J	.
=121	=121	=121	=121	=121	=121	=121	=121	=121	=121
8B\L	.	4.ryy	.	8f#/	.	24dd#X\LL	.	(24dd#X\LL	.
.	.	.	.	.	.	24cc#\	.	24cc#\	.
.	.	.	.	.	.	24b\JJ	.	24b\JJ)	.
!	!	!	!	!LO:TX:a:t=P:problem:brak kropki nad triolą	!	!	!	!	!
8B\	.	.	.	24dd#X\LL	.	4b\	.	4b\	.
.	.	.	.	24cc#\	.	.	.	.	.
.	.	.	.	24b\JJ	.	.	.	.	.
8B\J	.	.	.	8dd#\	.	.	.	.	.
=122	=122	=122	=122	=122	=122	=122	=122	=122	=122
8B\L	.	4.ryy	.	8b\	.	24b\LL	.	8b\L	.
.	.	.	.	.	.	24cc#\	.	.	.
.	.	.	.	.	.	24dd#X\JJ	.	.	.
8B\	.	.	.	24b\LL	.	24dd#\LL	.	8dd#X\	.
.	.	.	.	24cc#\	.	24ee\	.	.	.
.	.	.	.	24dd#X\JJ	.	24ff#\JJ	.	.	.
8B\J	.	.	.	8dd#\	.	8ff#\	.	8ff#\J	.
=123	=123	=123	=123	=123	=123	=123	=123	=123	=123
!	!	!	!	!	!	!LO:TX:a:t=P:brak klamry łukowej z kropką przy ozn. trioli	!	!	!
8c#\L	.	4.ryy	.	8g#X/	.	24ee\LL	.	(24ee\LL	.
.	.	.	.	.	.	24dd#X\	.	24dd#X\	.
.	.	.	.	.	.	24cc#\JJ	.	24cc#\JJ)	.
8c#\	.	.	.	24ee\LL	.	4cc#\	.	4cc#\	.
.	.	.	.	24dd#X\	.	.	.	.	.
.	.	.	.	24cc#\JJ	.	.	.	.	.
8c#\J	.	.	.	8cc#\	.	.	.	.	.
=124	=124	=124	=124	=124	=124	=124	=124	=124	=124
!	!	!	!	!	!	!LO:TX:a:t=P:brak kropki przy ozn. trioli	!	!	!
8c#\L	.	4.ryy	.	8cc#\	.	24cc#\LL	.	8cc#\L	.
.	.	.	.	.	.	24dd#X\	.	.	.
.	.	.	.	.	.	24ee\JJ	.	.	.
!	!	!	!	!LO:TX:a:t=P:problem:brak klamry łukowej z kropką nad triolą	!	!LO:TX:a:t=P:brak kropki przy ozn. trioli	!	!	!
8c#\	.	.	.	24cc#\LL	.	24ee\LL	.	8ee\	.
.	.	.	.	24dd#X\	.	24ff#\	.	.	.
.	.	.	.	24ee\JJ	.	24gg#X\JJ	.	.	.
8c#\J	.	.	.	8ee\	.	8gg#\	.	8gg#X\J	.
=125	=125	=125	=125	=125	=125	=125	=125	=125	=125
!	!	!	!	!	!	!LO:TX:a:t=P:brak kropki przy ozn. trioli	!	!	!
8d#X\L	.	4.ryy	.	8a/	.	24ff#\LL	.	(24ff#\LL	-bi-
.	.	.	.	.	.	24ee\	.	24ee\	.
.	.	.	.	.	.	24dd#X\JJ	.	24dd#X\JJ)	.
!	!	!	!	!LO:TX:a:t=P:problem:brak klamry łukowej z kropką nad triolą	!	!	!	!	!
8d#\	.	.	.	24ff#\LL	.	4dd#\	.	4dd#\	-tur
.	.	.	.	24ee\	.	.	.	.	.
.	.	.	.	24dd#X\JJ	.	.	.	.	.
8d#\J	.	.	.	8dd#\	.	.	.	.	.
!	!	!	!	!	!	!	!	!LO:LB:g=original	!
=126	=126	=126	=126	=126	=126	=126	=126	=126	=126
8d#X\L	.	4.ryy	.	8b\	.	8b\	.	8b\L	et
!	!	!	!	!LO:TX:a:t=P:brak kropki przy ozn. trioli	!	!LO:TX:a:t=P:brak kropki przy ozn. trioli	!	!	!
8d#\	.	.	.	24ff#\LL	.	24ff#\LL	.	8ff#\	si-
.	.	.	.	24ee\	.	24ee\	.	.	.
.	.	.	.	24dd#X\JJ	.	24dd#X\JJ	.	.	.
!	!	!	!	!	!	!LO:TX:a:t=P:brak kropki przy ozn. trioli	!	!	!
8d#\J	.	.	.	24dd#\LL	.	24dd#\LL	.	8a\J	-cut
.	.	.	.	24cc#\	.	24cc#\	.	.	.
.	.	.	.	24b\JJ	.	24b\JJ	.	.	.
=127	=127	=127	=127	=127	=127	=127	=127	=127	=127
!LO:TX:a:t=P:problem: mixed beam	!	!	!	!LO:TX:a:t=P:problem: mixed beam	!	!LO:TX:a:t=P:problem: mixed beam	!	!LO:TX:a:t=P:problem: mixed beam	!
8e\L	.	4.ryy	.	8ee\L	.	8ee\L	.	8ee\L	Ced-
8E/	.	.	.	8e/	.	8e/	.	8e/	.
8E/J	.	.	.	8e/J	.	8e/J	.	8e/J	.
=128	=128	=128	=128	=128	=128	=128	=128	=128	=128
4E\	.	4.ryy	.	4e/	.	4e/	.	4e/	-rus
8r	.	.	.	8ee\	.	8ee\	.	8ee\	Li-
=129	=129	=129	=129	=129	=129	=129	=129	=129	=129
8B\L	.	4.ryy	.	16dd#X\LL	.	16dd#X\LL	.	16dd#X\LL	-ba-
.	.	.	.	16cc#\JJ	.	16cc#\JJ	.	16cc#\JJ	.
8d#X\	.	.	.	4b\	.	4b\	.	4b\	-ni-
8B\J	.	.	.	.	.	.	.	.	.
=130	=130	=130	=130	=130	=130	=130	=130	=130	=130
!	!	!	!	!LO:TX:a:t=P:problem: mixed beam	!	!LO:TX:a:t=P:problem: mixed beam	!	!LO:TX:a:t=P:problem: mixed beam	!
8e\L	.	4.ryy	.	8ee\L	.	8ee\L	.	8ee\L	-mul-
8E\	.	.	.	8e/	.	8e/	.	8e/	.
8E\J	.	.	.	8e/J	.	8e/J	.	8e/J	-ti-
!	!	!	!	!	!	!LO:LB:g=original	!	!	!
=131	=131	=131	=131	=131	=131	=131	=131	=131	=131
4E\	.	4.ryy	.	4e/	.	4e/	.	4e/	-pli-
8e\	.	.	.	8ee\	.	8ee\	.	8ee\	-ca-
!LO:LB:g=original	!	!	!	!LO:LB:g=original	!	!	!	!	!
=132	=132	=132	=132	=132	=132	=132	=132	=132	=132
16d#X\LL	.	4.ryy	.	16dd#X\LL	.	16dd#X\LL	.	16dd#X\LL	.
16e\	.	.	.	16ee\	.	16ee\	.	16ee\	.
16d#\	.	.	.	16dd#\	.	16dd#\	.	16dd#\	.
16c#\	.	.	.	16cc#\	.	16cc#\	.	16cc#\	.
16B\	.	.	.	16b\	.	16b\	.	16b\	.
16A\JJ	.	.	.	16a\JJ	.	16a\JJ	.	16a\JJ	.
=133	=133	=133	=133	=133	=133	=133	=133	=133	=133
!	!	!	!	!LO:TX:a:t=P:problem: mixed beam	!	!	!	!	!
4G#X\	.	4.ryy	.	8g#X/L	.	4.g#X/	.	8g#X\L	.
.	.	.	.	8ee\	.	.	.	8ee\	.
!	!	!	!	!	!	!	!	!LO:TX:a:t=30	!
8A\	.	.	.	8aa\J	.	.	.	8a\J	.
=134	=134	=134	=134	=134	=134	=134	=134	=134	=134
!LO:TX:a:t=P:problem: mixed beam	!	!	!	!	!	!	!	!	!
8B\L	.	4.ryy	.	24gg#X\LL	.	24gg#X\LL	.	(24g#X/LL	.
.	.	.	.	24ff#\	.	24ff#\	.	24f#/	.
.	.	.	.	24ee\JJ	.	24ee\JJ	.	24e/JJ)	.
8BB/	.	.	.	4ff#T\	.	4ff#T\	.	4f#T/	-bi-
8BB/J	.	.	.	.	.	.	.	.	.
=135	=135	=135	=135	=135	=135	=135	=135	=135	=135
!	!LO:DY:a:t=f&colon;	!	!	!	!LO:DY:a:t=for	!LO:SIC:s= fis:v	!LO:DY:a:t=for	!	!
8E\L	f	4.ryy	.	16gg#X\LL	f	16gg\LL	f	4e/	-tur
.	.	.	.	16ee\	.	16ee\	.	.	.
8E\	.	.	.	16bb\	.	16bb\	.	.	.
.	.	.	.	16gg#\	.	16gg\	.	.	.
8E\J	.	.	.	16ff#\	.	16ff#\	.	8r	.
.	.	.	.	16ee\JJ	.	16ee\JJ	.	.	.
=136	=136	=136	=136	=136	=136	=136	=136	=136	=136
!	!	!	!	!	!	!	!	!LO:TX:a:t=8	!
!	!	!	!	!	!	!	!	!LO:N:vis=00	!
8BB/L	.	4.ryy	.	16ff#\LL	.	16ff#\LL	.	1.r	.
.	.	.	.	16b\	.	16b\	.	.	.
8BB/	.	.	.	16ff#\	.	16ff#\	.	.	.
.	.	.	.	16aa\	.	16aa\	.	.	.
8BB/J	.	.	.	16gg#X\	.	16gg#X\	.	.	.
.	.	.	.	16ff#\JJ	.	16ff#\JJ	.	.	.
=137	=137	=137	=137	=137	=137	=137	=137	=137	=137
!	!	!	!	!	!LO:DY:a	!	!	!	!
8E\L	.	4.ryy	.	16gg#X\LL	p	16gg#X\LL	.	.	.
.	.	.	.	16ee\	.	16ee\	.	.	.
8E\	.	.	.	16bb\	.	16bb\	.	.	.
.	.	.	.	16gg#\	.	16gg#\	.	.	.
8E\J	.	.	.	16ff#\	.	16ff#\	.	.	.
.	.	.	.	16ee\JJ	.	16ee\JJ	.	.	.
=138	=138	=138	=138	=138	=138	=138	=138	=138	=138
8BB/L	.	4.ryy	.	16ff#\LL	.	16ff#\LL	.	.	.
.	.	.	.	16b\	.	16b\	.	.	.
8BB/	.	.	.	16ff#\	.	16ff#\	.	.	.
.	.	.	.	16aa\	.	16aa\	.	.	.
8BB/J	.	.	.	16gg#X\	.	16gg#X\	.	.	.
.	.	.	.	16ee\JJ	.	16ee\JJ	.	.	.
=139	=139	=139	=139	=139	=139	=139	=139	=139	=139
!	!	!	!	!	!LO:DY:a:t=for	!	!	!	!
8E\L	.	4.ryy	.	8gg#X\L	f	8gg#X\L	.	.	.
8E\	.	.	.	16gg#\L	.	16gg#\L	.	.	.
.	.	.	.	16ee\	.	16ee\	.	.	.
8F#\J	.	.	.	16aa\	.	16aa\	.	.	.
.	.	.	.	16ff#\JJ	.	16ff#\JJ	.	.	.
=140	=140	=140	=140	=140	=140	=140	=140	=140	=140
!	!	!	!	!	!	!	!	!LO:N:vis=00	!
8G\L	.	4.ryy	.	8bb\L	.	8bb\L	.	1.r	.
8G\	.	.	.	16bb\L	.	16bb\L	.	.	.
.	.	.	.	16gg#y\	.	16gg#X\	.	.	.
8F#\J	.	.	.	16aa\	.	16aa\	.	.	.
.	.	.	.	16ff#\JJ	.	16ff#\JJ	.	.	.
=141	=141	=141	=141	=141	=141	=141	=141	=141	=141
8E\L	.	4.ryy	.	8gg#X\L	.	8gg#X\L	.	.	.
8E\	.	.	.	16gg#\L	.	16gg#\L	.	.	.
.	.	.	.	16ee\	.	16ee\	.	.	.
8F#\J	.	.	.	16aa\	.	16aa\	.	.	.
.	.	.	.	16ff#\JJ	.	16ff#\JJ	.	.	.
=142	=142	=142	=142	=142	=142	=142	=142	=142	=142
8G#X\L	.	4.ryy	.	16bb\LL	.	16bb\LL	.	.	.
.	.	.	.	16ee\JJ	.	16ee\JJ	.	.	.
8A\	.	.	.	4ff#t\	.	4ff#t\	.	.	.
8B\J	.	.	.	.	.	.	.	.	.
=143	=143	=143	=143	=143	=143	=143	=143	=143	=143
!	!	!	!	!LO:TX:a:t=P:problem: mixed beam	!	!LO:TX:a:t=P:problem: mixed beam	!	!	!
4E\	.	4.ryy	.	8ee\L	.	8ee\L	.	.	.
.	.	.	.	8e/J	.	8e/J	.	.	.
8r	.	.	.	8r	.	8r	.	.	.
=144	=144	=144	=144	=144	=144	=144	=144	=144	=144
!	!	!	!	!	!LO:DY:a	!	!LO:DY:a	!	!
4.r	.	4.ryy	.	4.ee\	p	4.ee\	p	4.ee\	Et
!	!	!	!	!	!	!LO:LB:g=original	!	!	!
=145	=145	=145	=145	=145	=145	=145	=145	=145	=145
!	!LO:DY:a	!	!	!	!	!	!	!	!
4.e\	p	4.ryy	.	8b/	.	8b/	.	8b\	flo-
.	.	.	.	.	.	8qqa/	.	.	.
.	.	.	.	4g#X/	.	4g#X/	.	4g#X\	.
!	!	!	!	!LO:LB:g=original	!	!	!	!	!
=146	=146	=146	=146	=146	=146	=146	=146	=146	=146
8E\L	.	4.ryy	.	8e/	.	8e/	.	8e/	.
8D#X\	.	.	.	4f#/	.	4f#t/	.	4f#t/	.
8BB\J	.	.	.	.	.	.	.	.	.
=147	=147	=147	=147	=147	=147	=147	=147	=147	=147
8E\L	.	4.ryy	.	16g#X/LL	.	16g#X/LL	.	16g#X/LL	-re-
.	.	.	.	16f#/J	.	16f#/J	.	16f#/J	.
8G#X\	.	.	.	8e/J	.	8e/J	.	8e/J	-bit
8E\J	.	.	.	16r	.	16r	.	16r	.
.	.	.	.	16e/	.	16e/	.	16e/	flo-
!	!	!	!	!	!	!	!	!LO:LB:g=original	!
=148	=148	=148	=148	=148	=148	=148	=148	=148	=148
4.F#\	.	4.ryy	.	4.a/	.	8dd\	.	8dd\	.
.	.	.	.	.	.	8.ddT\L	.	8.ddT\L	.
.	.	.	.	.	.	32cc#\LL	.	32cc#\LL	.
.	.	.	.	.	.	32dd\JJJ	.	32dd\JJJ	.
=149	=149	=149	=149	=149	=149	=149	=149	=149	=149
4.G#X\	.	4.ryy	.	4.b/	.	8e/	.	8e/	.
.	.	.	.	.	.	4dd\	.	4dd\	.
=150	=150	=150	=150	=150	=150	=150	=150	=150	=150
4A\	.	4.ryy	.	4e/	.	8dd\L	.	8dd\L	-re-
.	.	.	.	.	.	8cc#\J	.	8cc#\J	-bit
!	!	!	!	!	!LO:DY:a:t=for&colon;	!	!LO:DY:a:t=for	!	!
8r	.	.	.	8ee\	f	8aa\	f	8r	.
=151	=151	=151	=151	=151	=151	=151	=151	=151	=151
!	!	!	!	!	!	!	!LO:DY:a:t=pia	!	!
4.r	.	4.ryy	.	8a\L	.	8a\L	p	8a\	in
.	.	.	.	16b\L	.	16b\L	.	16b\LL	ae-
.	.	.	.	16cc#\	.	16cc#\	.	16cc#\	.
.	.	.	.	16dd\	.	16dd\	.	16dd\	.
.	.	.	.	16ee\JJ	.	16ee\JJ	.	16ee\JJ	.
=152	=152	=152	=152	=152	=152	=152	=152	=152	=152
8AA/L	.	4.ryy	.	8dd\	.	8ff#\	.	8ff#\	-ter-
8AA/	.	.	.	4dd\	.	4ff#\	.	4ff#\	-num
8AA/J	.	.	.	.	.	.	.	.	.
=153	=153	=153	=153	=153	=153	=153	=153	=153	=153
4AA/	.	4.ryy	.	8dd\L	.	16aa\LL	.	16aa\LL	flo-
.	.	.	.	.	.	16ff#\JJ	.	16ff#\JJ	.
.	.	.	.	8b\	.	8dd#X\L	.	8dd#X\L	.
8r	.	.	.	8cc#\J	.	8ee\J	.	8ee\J	.
!LO:LB:g=original	!	!	!	!	!	!	!	!	!
=154	=154	=154	=154	=154	=154	=154	=154	=154	=154
4E\	.	4.ryy	.	8.b\L	.	8.ddn\L	.	(8.ddn\L	-re-
.	.	.	.	16cc#\K	.	16ee\K	.	16ee\K)	.
8r	.	.	.	8b\J	.	8dd\J	.	8dd\J	-bit
=155	=155	=155	=155	=155	=155	=155	=155	=155	=155
8E\L	.	4.ryy	.	8gg#X\	.	8bb\	.	8bb\	in
8G#X\	.	.	.	4b/	.	4dd\	.	4dd\	ae-
8E\J	.	.	.	.	.	.	.	.	.
=156	=156	=156	=156	=156	=156	=156	=156	=156	=156
4AA/	.	4.ryy	.	8b\L	.	8dd\L	.	8dd\L	-ter-
.	.	.	.	8a\	.	8cc#\J	.	8cc#\J	-num
!	!	!	!	!	!	!	!LO:DY:a:t=fo&colon;	!	!
8r	.	.	.	8ee\J	.	8aa\	f	8r	.
=157	=157	=157	=157	=157	=157	=157	=157	=157	=157
!LO:N:vis=0	!	!	!	!LO:N:vis=00	!	!	!LO:DY:a:t=p&colon;	!	!
2.r	.	4.ryy	.	2.r	.	8a/L	p	(8a\	an-
.	.	.	.	.	.	8a/	.	8a\)	.
.	.	.	.	.	.	8a/J	.	8a\	-te
=158	=158	=158	=158	=158	=158	=158	=158	=158	=158
!	!	!	!	!	!	!LO:TX:a:t=P:problem: mixed beam	!	!	!
.	.	4.ryy	.	.	.	16a/LL	.	16a\LL	Do-
.	.	.	.	.	.	16ffn\	.	16ffn\	.
.	.	.	.	.	.	16ee\	.	16ee\	.
.	.	.	.	.	.	16dd\	.	16dd\	.
!	!	!	!	!	!	!LO:SIC:s=c:v	!	!	!
.	.	.	.	.	.	16cc#\	.	16ccn\	.
.	.	.	.	.	.	16b\JJ	.	16b\JJ	.
!	!	!	!	!	!	!LO:LB:g=original	!	!	!
=159	=159	=159	=159	=159	=159	=159	=159	=159	=159
8Fn\L	.	4.ryy	.	8a/L	.	16a/LL	.	16a\LL	-mi-
.	.	.	.	.	.	16g#X/J	.	16g#X\J	.
8F\	.	.	.	8a/	.	8a/J	.	8a\J	-num
8F\J	.	.	.	8a/J	.	8r	.	8r	.
!	!	!	!	!	!	!	!	!LO:LB:g=original	!
=160	=160	=160	=160	=160	=160	=160	=160	=160	=160
!	!	!	!	!	!	!	!	!LO:TX:a:t=1	!
16Fn\LL	.	4.ryy	.	16a/LL	.	4.r	.	4.r	.
16B-X\	.	.	.	16b-X/	.	.	.	.	.
16A\	.	.	.	16a/	.	.	.	.	.
16G\	.	.	.	16g/	.	.	.	.	.
16F\	.	.	.	16fn/	.	.	.	.	.
16E\JJ	.	.	.	16e/JJ	.	.	.	.	.
=161	=161	=161	=161	=161	=161	=161	=161	=161	=161
4D\	.	4.ryy	.	4f#/	.	8b/	.	8b\L	flo-
.	.	.	.	.	.	24ffn\LL	.	(8ffn\	-re-
.	.	.	.	.	.	24ee\	.	.	.
.	.	.	.	.	.	24dd\JJ	.	.	.
8D#X\	.	.	.	8f#X/	.	24ccn\LL	.	8a\J)	.
.	.	.	.	.	.	24b'\	.	.	.
.	.	.	.	.	.	24a'\JJ	.	.	.
=162	=162	=162	=162	=162	=162	=162	=162	=162	=162
!	!	!	!	!	!	!LO:TX:a:t=P:problem: mixed beam	!	!	!
8E\L	.	4.ryy	.	8B/L	.	8g#X/L	.	8g#X\	-bit
8E\	.	.	.	8g/	.	8gg#X\	.	16r	.
.	.	.	.	.	.	.	.	16a\LL	flo-
8E\J	.	.	.	8g/J	.	8gg#\J	.	16b\	.
.	.	.	.	.	.	.	.	16cc#\JJ	.
!	!	!	!	!LO:LB:g=original	!	!	!	!	!
=163	=163	=163	=163	=163	=163	=163	=163	=163	=163
8E\L	.	4.ryy	.	8g#X/L	.	8dd\L	.	16dd\LL	-re-
.	.	.	.	.	.	.	.	16ee\	.
8E\	.	.	.	8g#/	.	8dd\	.	16dd\	.
.	.	.	.	.	.	.	.	16cc#\	.
!	!	!	!	!	!	!	!	!LO:TX:a:t=3	!
8E\J	.	.	.	8g#/J	.	8dd\J	.	16dd\	.
.	.	.	.	.	.	.	.	16b\JJ	.
=164	=164	=164	=164	=164	=164	=164	=164	=164	=164
8E\L	.	4.ryy	.	8a\L	.	8cc#X\L	.	8a\	-bit
8E\	.	.	.	8cc#\	.	8aa\	.	16r	.
*	*	*	*	*	*	*	*	*	*ij
.	.	.	.	.	.	.	.	16b\LL	flo-
8E\J	.	.	.	8cc#\J	.	8aa\J	.	16cc#\	.
.	.	.	.	.	.	.	.	16dd\JJ	.
=165	=165	=165	=165	=165	=165	=165	=165	=165	=165
8E\L	.	4.ryy	.	8a/L	.	8cc#\L	.	16ee\LL	-re-
.	.	.	.	.	.	.	.	16ff#\	.
8E\	.	.	.	8a/	.	8cc#\	.	16ee\	.
.	.	.	.	.	.	.	.	16dd\	.
8E\J	.	.	.	8a/J	.	8cc#\J	.	16ee\	.
.	.	.	.	.	.	.	.	16cc#\JJ	.
=166	=166	=166	=166	=166	=166	=166	=166	=166	=166
!	!	!	!	!	!	!LO:TX:a:t=P:problem: mixed beam	!	!	!
8E\L	.	4.ryy	.	8g#X/L	.	8b/L	.	8b\	-bit
*	*	*	*	*	*	*	*	*	*Xij
8E\	.	.	.	8gg#X\	.	8bb\	.	16r	.
.	.	.	.	.	.	.	.	16cc#\LL	flo-
8E\J	.	.	.	8gg#\J	.	8bb\J	.	16dd\	.
.	.	.	.	.	.	.	.	16ee\JJ	.
=167	=167	=167	=167	=167	=167	=167	=167	=167	=167
8E\L	.	4.ryy	.	8g#X/L	.	8dd\L	.	16ff#\LL	-re-
.	.	.	.	.	.	.	.	16ee\	.
8E\	.	.	.	8b/	.	8dd\	.	16ff#\	.
.	.	.	.	.	.	.	.	16dd\	.
8E\J	.	.	.	8g#/J	.	8dd\J	.	16cc#\	.
.	.	.	.	.	.	.	.	16b\JJ	.
=168	=168	=168	=168	=168	=168	=168	=168	=168	=168
8AA/L	.	4.ryy	.	8cc#\L	.	8cc#\L	.	8cc#\L	.
8AA/	.	.	.	16cc#\L	.	16cc#\L	.	16cc#\L	.
.	.	.	.	16a\	.	16a\	.	16a\	.
8BB/J	.	.	.	16dd\	.	16dd\	.	16dd\	.
.	.	.	.	16b\JJ	.	16b\JJ	.	16b\JJ	.
=169	=169	=169	=169	=169	=169	=169	=169	=169	=169
8C#/L	.	4.ryy	.	8ee\L	.	8ee\L	.	8ee\L	.
8C#/	.	.	.	16ee\L	.	16ee\L	.	16ee\L	.
.	.	.	.	16cc#\	.	16cc#\	.	16cc#\	.
8D/J	.	.	.	16ff#\	.	16ff#\	.	16ff#\	.
.	.	.	.	16dd\JJ	.	16dd\JJ	.	16dd\JJ	.
=170	=170	=170	=170	=170	=170	=170	=170	=170	=170
8C#/L	.	4.ryy	.	8aa\L	.	8aa\L	.	8aa\L	.
8C#/	.	.	.	16aa\L	.	16aa\L	.	16aa\L	.
.	.	.	.	16ee\	.	16ee\	.	16ee\	.
8D/J	.	.	.	16ff#\	.	16ff#\	.	16ff#\	.
.	.	.	.	16dd\JJ	.	16dd\JJ	.	16dd\JJ	.
=171	=171	=171	=171	=171	=171	=171	=171	=171	=171
8C#/L	.	4.ryy	.	16ee\LL	.	16ee\LL	.	16ee\LL	.
.	.	.	.	16cc#\	.	16cc#\JJ	.	16cc#\	.
8BB/	.	.	.	16dd\	.	16dd\LL	.	16dd\	.
.	.	.	.	16b\	.	16b\JJ	.	16b\	.
8AA/J	.	.	.	16cc#\	.	16cc#\LL	.	16cc#\	.
.	.	.	.	16a\JJ	.	16a\JJ	.	16a\JJ	.
!	!	!	!	!	!	!	!	!LO:LB:g=original	!
=172	=172	=172	=172	=172	=172	=172	=172	=172	=172
!LO:TX:a:t=P:problem: mixed beam	!	!	!	!	!	!	!	!	!
8E\L	.	4.ryy	.	16e/LL	.	16e/LL	.	16e/LL	.
.	.	.	.	16a/JJ	.	16a/JJ	.	16a/JJ	.
.	.	.	.	.	.	.	.	8qqa/	.
8EE/	.	.	.	4bT\	.	4bT\	.	4bT\	-re-
8EE/J	.	.	.	.	.	.	.	.	.
=173	=173	=173	=173	=173	=173	=173	=173	=173	=173
4AA/	.	4.ryy	.	4a/	.	4a/	.	4a\	-bit
8r	.	.	.	8r	.	8r	.	8r	.
=174	=174	=174	=174	=174	=174	=174	=174	=174	=174
4E\	.	4.ryy	.	4b\	.	4gg#X\	.	8dd\L	flo-
.	.	.	.	.	.	.	.	8dd\	-re-
8r	.	.	.	8r	.	8r	.	8dd\J	-bit
!LO:LB:g=original	!	!	!	!	!	!	!	!	!
=175	=175	=175	=175	=175	=175	=175	=175	=175	=175
8E\L	.	4.ryy	.	8g#X/L	.	8dd\	.	8dd\	in
8E\	.	.	.	8g#/	.	4bb\	.	4bb\	ae-
8E\J	.	.	.	8g#/J	.	.	.	.	.
=176	=176	=176	=176	=176	=176	=176	=176	=176	=176
!	!	!	!	!LO:TX:a:t=P:problem: mixed beam	!	!	!	!	!
8E\L	.	4.ryy	.	8g/L	.	8dd\L	.	16dd\LL	-ter-
.	.	.	.	.	.	.	.	16cc#\J	.
8E\	.	.	.	8b/	.	8gg#X\	.	8dd\J	-num
8E\J	.	.	.	8gg\J	.	8bb\J	.	8r	.
=177	=177	=177	=177	=177	=177	=177	=177	=177	=177
8E\L	.	4.ryy	.	8b/L	.	8dd\L	.	(8dd\L	in
8E\	.	.	.	8a/	.	8cc#\	.	8cc#\)	.
8E\J	.	.	.	8g#/J	.	8b\J	.	8b\J	ae-
=178	=178	=178	=178	=178	=178	=178	=178	=178	=178
!LO:TX:a:t=P:problem: mixed beam	!	!	!	!	!	!	!	!	!
8A\L	.	4.ryy	.	8aa\L	.	8aa\L	.	(8aa\L	-ter-
!	!	!	!	!LO:TX:a:t=P:problem: mixed beam	!	!LO:TX:a:t=P:problem: mixed beam	!	!	!
8AA/	.	.	.	8a/	.	8a/	.	8a\)	.
8AA/J	.	.	.	8a/J	.	8a/J	.	8a\J	-num
!	!	!	!	!LO:LB:g=original	!	!	!	!	!
=179	=179	=179	=179	=179	=179	=179	=179	=179	=179
4AA/	.	4.ryy	.	4a/	.	4a/	.	4a\	an-
8A\	.	.	.	8aa\	.	8aa\	.	8aa\	-to
=180	=180	=180	=180	=180	=180	=180	=180	=180	=180
8E\L	.	4.ryy	.	16gg#X\LL	.	24gg#X\LL	.	16gg#X\LL	Do-
.	.	.	.	.	.	24ff#\	.	.	.
.	.	.	.	16ff#\JJ	.	.	.	16ff#\JJ	-mi-
.	.	.	.	.	.	24ee\JJ	.	.	.
8G#X\	.	.	.	4ee\	.	4ee\	.	4ee\	-num
8E\J	.	.	.	.	.	.	.	.	.
=181	=181	=181	=181	=181	=181	=181	=181	=181	=181
!LO:TX:a:t=P:problem: mixed beam	!	!	!	!LO:TX:a:t=P:problem: mixed beam	!	!	!	!	!
8A\L	.	4.ryy	.	8aa\L	.	8aa\L	.	8aa\L	flo-
!	!	!	!	!	!	!LO:TX:a:t=P:problem: mixed beam	!	!	!
8AA/	.	.	.	8a/	.	8a/	.	(8a\	.
8AA/J	.	.	.	8a/J	.	8a/J	.	8a\J)	.
=182	=182	=182	=182	=182	=182	=182	=182	=182	=182
8AA/L	.	4.ryy	.	4a/	.	4a/	.	4a\	-re-
8C#X/	.	.	.	.	.	.	.	.	.
8AA/J	.	.	.	8aa\	.	8aa\	.	8aa\	-bit
=183	=183	=183	=183	=183	=183	=183	=183	=183	=183
!	!	!	!	!LO:TX:a:t=poco	!LO:DY:a:t=for	!LO:TX:a:t=poco	!	!	!
16G#X\LL	.	4.ryy	.	16gg#X\LL	f	16gg#X\LL	f	16gg#X\LL	flo-
16A\	.	.	.	16aa\	.	16aa\	.	16aa\	.
16G#\	.	.	.	16gg#\	.	16gg#\	.	16gg#\	.
16F#\	.	.	.	16ff#\	.	16ff#\	.	16ff#\	.
16E\	.	.	.	16ee\	.	16ee\	.	16ee\	.
16D\JJ	.	.	.	16dd\JJ	.	16dd\JJ	.	16dd\JJ	.
!	!	!	!	!	!	!LO:TX:a:t=P:problem:wykreślone 2 takty	!	!	!
=184	=184	=184	=184	=184	=184	=184	=184	=184	=184
4C#/	.	4.ryy	.	8cc#\L	.	8cc#\L	.	8cc#\L	.
.	.	.	.	8aa\	.	8aa\	.	8aa\	.
8D/	.	.	.	8dd\J	.	8dd\J	.	8dd\J	.
=185	=185	=185	=185	=185	=185	=185	=185	=185	=185
!LO:TX:a:t=P:problem: mixed beam	!	!	!	!	!	!LO:TX:a:t=P:brak kropki przy ozn. trioli	!	!	!
8E\L	.	4.ryy	.	24cc#\LL	.	24cc#\LL	.	(24cc#\LL	.
.	.	.	.	24b\	.	24b\	.	24b\	.
.	.	.	.	24a\JJ	.	24a\JJ	.	24a\JJ)	.
.	.	.	.	.	.	.	.	8qqa/	.
8EE/	.	.	.	4bT\	.	4bT\	.	4bT\	.
8EE/J	.	.	.	.	.	.	.	.	.
!	!	!	!	!	!	!	!	!LO:LB:g=original	!
=186	=186	=186	=186	=186	=186	=186	=186	=186	=186
!	!	!	!	!LO:TX:a:t=P:problem: mixed beam	!	!LO:TX:a:t=P:problem: mixed beam	!	!	!
4C#/	.	4.ryy	.	8aa\L	.	8aa\L	.	8aa\L	.
.	.	.	.	8a/	.	8a/	.	8a\	.
8D/	.	.	.	8dd\J	.	8dd/J	.	8dd\J	.
=187	=187	=187	=187	=187	=187	=187	=187	=187	=187
!LO:TX:a:t=P:problem: mixed beam	!	!	!	!	!	!	!	!	!
8E\L	.	4.ryy	.	24cc#\LL	.	24cc#\LL	.	24cc#\LL	.
.	.	.	.	24b\	.	24b\	.	24b\	.
.	.	.	.	24a\JJ	.	24a\JJ	.	24a\JJ	.
.	.	.	.	.	.	.	.	8qqcc#/	.
8EE/	.	.	.	4bT\	.	4bT\	.	4bT\	-re-
8EE/J	.	.	.	.	.	.	.	.	.
=188	=188	=188	=188	=188	=188	=188	=188	=188	=188
!	!LO:DY:a:t=f&colon;	!	!	!	!LO:DY:a:t=for	!	!LO:DY:a:t=for	!	!
4AA/	f	4.ryy	.	4.a/	f	4.a/	f	4a\	-bit
8r	.	.	.	.	.	.	.	8r	.
!	!	!	!	!	!	!LO:LB:g=original	!	!	!
=189	=189	=189	=189	=189	=189	=189	=189	=189	=189
!	!	!	!	!	!	!	!	!LO:TX:a:t=16	!
!	!	!	!	!	!	!	!	!LO:N:vis=00	!
(8A\	.	4.ryy	.	8cc#\L	.	8cc#\L	.	1.r	.
4B\)	.	.	.	8.ddT\	.	8.ddT\	.	.	.
.	.	.	.	32cc#\LL	.	32cc#\LL	.	.	.
.	.	.	.	32dd\JJJ	.	32dd\JJJ	.	.	.
=190	=190	=190	=190	=190	=190	=190	=190	=190	=190
8c#\L	.	4.ryy	.	8ee\L	.	8ee\L	.	.	.
8d\	.	.	.	8ff#\	.	8ff#\	.	.	.
8B\J	.	.	.	8gg#X\J	.	8gg#X\J	.	.	.
=191	=191	=191	=191	=191	=191	=191	=191	=191	=191
!	!	!	!	!LO:TX:a:t=P:problem: mixed beam	!	!LO:TX:a:t=P:problem: mixed beam	!	!	!
8A\L	.	4.ryy	.	8aa\L	.	8aa\L	.	.	.
8c#\	.	.	.	8a/J	.	8a/J	.	.	.
8B\J	.	.	.	8r	.	8r	.	.	.
=192	=192	=192	=192	=192	=192	=192	=192	=192	=192
8A\L	.	4.ryy	.	16cc#\LL	.	16cc#\LL	.	.	.
.	.	.	.	16a\	.	16a\	.	.	.
8A\	.	.	.	16ee\	.	16ee\	.	.	.
.	.	.	.	16cc#\	.	16cc#\	.	.	.
8A\J	.	.	.	16b\	.	16b\	.	.	.
.	.	.	.	16a\JJ	.	16a\JJ	.	.	.
=193	=193	=193	=193	=193	=193	=193	=193	=193	=193
!	!	!	!	!	!	!	!	!LO:N:vis=00	!
8E\L	.	4.ryy	.	16b/LL	.	16b/LL	.	1.r	.
.	.	.	.	16e/	.	16e/	.	.	.
8E\	.	.	.	16b/	.	16b/	.	.	.
.	.	.	.	16dd/	.	16dd/	.	.	.
8E\J	.	.	.	16cc#/	.	16cc#/	.	.	.
.	.	.	.	16b/JJ	.	16b/JJ	.	.	.
!LO:LB:g=original	!	!	!	!LO:LB:g=original	!	!	!	!	!
=194	=194	=194	=194	=194	=194	=194	=194	=194	=194
!	!	!	!	!	!LO:DY:a	!	!LO:DY:a:t=p&colon;	!	!
8A\L	.	4.ryy	.	16cc#\LL	p	16cc#\LL	p	.	.
.	.	.	.	16a\	.	16a\	.	.	.
8A\	.	.	.	16ee\	.	16ee\	.	.	.
.	.	.	.	16cc#\	.	16cc#\	.	.	.
8A\J	.	.	.	16b\	.	16b\	.	.	.
.	.	.	.	16a\JJ	.	16a\JJ	.	.	.
=195	=195	=195	=195	=195	=195	=195	=195	=195	=195
8E\L	.	4.ryy	.	16b/LL	.	16b/LL	.	.	.
.	.	.	.	16e/JJ	.	16e/	.	.	.
.	.	.	.	8qqcc#/	.	.	.	.	.
8E\	.	.	.	16b\LL	.	16b/	.	.	.
.	.	.	.	16dd\JJ	.	16dd/JJ	.	.	.
8E\J	.	.	.	16cc#\LL	.	16cc#\LL	.	.	.
.	.	.	.	16b\JJ	.	16b\JJ	.	.	.
=196	=196	=196	=196	=196	=196	=196	=196	=196	=196
!	!	!	!	!	!LO:DY:a	!	!LO:DY:a	!	!
8AA'/L	.	4.ryy	.	8cc#\L	f	8cc#\L	f	.	.
(8AA/	.	.	.	16cc#\L	.	16cc#\L	.	.	.
.	.	.	.	16a\	.	16a\	.	.	.
8BB/J)	.	.	.	16dd\	.	16dd\	.	.	.
.	.	.	.	16b\JJ	.	16b\JJ	.	.	.
=197	=197	=197	=197	=197	=197	=197	=197	=197	=197
!	!	!	!	!	!	!	!	!LO:N:vis=00	!
8C#'/L	.	4.ryy	.	8ee\L	.	8ee\L	.	1.r	.
(8C#/	.	.	.	16ee\L	.	16ee\L	.	.	.
.	.	.	.	16cc#\	.	16cc#\	.	.	.
8D/J)	.	.	.	16ff#\	.	16ff#\	.	.	.
.	.	.	.	16dd\JJ	.	16dd\JJ	.	.	.
=198	=198	=198	=198	=198	=198	=198	=198	=198	=198
8C#'/L	.	4.ryy	.	8aa\L	.	8aa\L	.	.	.
(8C#/	.	.	.	16aa\L	.	16aa\L	.	.	.
.	.	.	.	16ee\	.	16ee\	.	.	.
8D/J)	.	.	.	16ff#\	.	16ff#\	.	.	.
.	.	.	.	16dd\JJ	.	16dd\JJ	.	.	.
=199	=199	=199	=199	=199	=199	=199	=199	=199	=199
8C#/L	.	4.ryy	.	16ee\L	.	16ee\LL	.	.	.
.	.	.	.	16cc#\	.	16cc#\JJ	.	.	.
8BB/	.	.	.	16dd\	.	16dd\LL	.	.	.
.	.	.	.	16b\	.	16b\JJ	.	.	.
8AA/J	.	.	.	16cc#\	.	16cc#\LL	.	.	.
.	.	.	.	16a\J	.	16a\JJ	.	.	.
=200	=200	=200	=200	=200	=200	=200	=200	=200	=200
!LO:TX:a:t=P:problem: mixed beam	!	!	!	!	!	!	!	!	!
8E\L	.	4.ryy	.	16e/LL	.	16e/LL	.	.	.
.	.	.	.	16a/JJ	.	16a/JJ	.	.	.
.	.	.	.	.	.	8qqa/	.	.	.
8EE/	.	.	.	4bT\	.	4b\	.	.	.
8EE/J	.	.	.	.	.	.	.	.	.
=201	=201	=201	=201	=201	=201	=201	=201	=201	=201
!	!	!	!	!	!LO:DY:a	!	!LO:DY:a	!LO:N:vis=00	!
8C#'/L	.	4.ryy	.	8aa\L	p	8aa\L	p	1.r;;	.
(8C#/	.	.	.	16aa\L	.	16aa\L	.	.	.
.	.	.	.	16ee\	.	16ee\	.	.	.
8D/J)	.	.	.	16ff#\	.	16ff#\	.	.	.
.	.	.	.	16dd\JJ	.	16dd\JJ	.	.	.
!	!	!	!	!	!	!LO:LB:g=original	!	!	!
=202	=202	=202	=202	=202	=202	=202	=202	=202	=202
8C#/L	.	4.ryy	.	16ee\LL	.	16ee\LL	.	.	.
.	.	.	.	16cc#\	.	16cc#\	.	.	.
8BB/	.	.	.	16dd\	.	16dd\	.	.	.
.	.	.	.	16b\	.	16b\	.	.	.
8AA/J	.	.	.	16cc#\	.	16cc#\	.	.	.
.	.	.	.	16a\JJ	.	16a\JJ	.	.	.
=203	=203	=203	=203	=203	=203	=203	=203	=203	=203
!LO:TX:a:t=P:problem: mixed beam	!	!	!	!	!	!	!	!	!
8E\L	.	4.ryy	.	16e/LL	.	16e/LL	.	.	.
.	.	.	.	16a/JJ	.	16a/JJ	.	.	.
8EE/	.	.	.	4bT\	.	4bT\	.	.	.
8EE/J	.	.	.	.	.	.	.	.	.
=204	=204	=204	=204	=204	=204	=204	=204	=204	=204
!LO:TX:a:t=P:problem: fermata powyżej i poniżej	!	!	!	!	!LO:DY:a	!	!LO:DY:a:t=fo	!	!
8AA;;/	.	4.ryy	.	8a/L	f	8a/L	f	.	.
8A\L	.	.	.	8A/J	.	8A/J	.	.	.
8G#X\J	.	.	.	8r;	.	8r;;	.	.	.
=205||	=205||	=205||	=205||	=205||	=205||	=205||	=205||	=205||	=205||
!	!	!	!	!	!LO:DY:a:t=pia	!	!	!	!
4.F#\	.	4.ryy	.	4.a/	p	4.cc#\	.	8cc#\	plan-
.	.	.	.	.	.	.	.	8cc#\	-ta-
.	.	.	.	.	.	.	.	8cc#\	-tuſ
=206	=206	=206	=206	=206	=206	=206	=206	=206	=206
8F#\L	.	4.ryy	.	8b/L	.	8ff#\	.	8ff#\	.
8F#\	.	.	.	8g#X/	.	4dd\	.	4dd\	in
8F#\J	.	.	.	8a/J	.	.	.	.	.
=207	=207	=207	=207	=207	=207	=207	=207	=207	=207
8E\L	.	4.ryy	.	8g#X/L	.	8dd\L	.	8dd\L	Do-
8E\	.	.	.	8g#/	.	8cc#\	.	8cc#\J	-mo
.	.	.	.	.	.	16qqee/LL	.	.	.
.	.	.	.	.	.	16qqff#/JJ	.	.	.
8E\J	.	.	.	8g#/J	.	8gg\J	.	8r	.
!	!	!	!	!LO:LB:g=original	!	!	!	!	!
=208	=208	=208	=208	=208	=208	=208	=208	=208	=208
4.E\	.	4.ryy	.	4.g#X/	.	4cc#\	.	8cc#\	Do-
.	.	.	.	.	.	.	.	8cc#\	-mi-
.	.	.	.	.	.	8r	.	8cc#\	-ni
=209	=209	=209	=209	=209	=209	=209	=209	=209	=209
8D\L	.	4.ryy	.	8d/L	.	16ff#\LL	.	(16ff#\LL	in
.	.	.	.	.	.	16ee\	.	16ee\)	.
8D\	.	.	.	8f#/	.	16dd\	.	(16dd\	at-
.	.	.	.	.	.	16cc#\	.	16cc#\)	.
8D\J	.	.	.	8f#/J	.	16b\	.	16b`\	-ri-
.	.	.	.	.	.	16a\JJ	.	16a`\JJ	-is
=210	=210	=210	=210	=210	=210	=210	=210	=210	=210
8D\L	.	4.ryy	.	8B/L	.	8g#X/L	.	8g#X`\L	do-
8C#\J	.	.	.	8e/J	.	8a/J	.	8a`\J	-muſ
8r	.	.	.	8r	.	8r	.	8r	.
=211	=211	=211	=211	=211	=211	=211	=211	=211	=211
4BB/	.	4.ryy	.	4g#X/	.	16dd\LL	.	(16dd\LL	De-
.	.	.	.	.	.	16cc#\	.	16cc#\	.
.	.	.	.	.	.	16b\	.	16b\	.
.	.	.	.	.	.	16a\JJ	.	16a\	.
8r	.	.	.	8r	.	16g#X/LL	.	16g#X\	.
.	.	.	.	.	.	16f#/JJ	.	16f#\JJ)	.
=212	=212	=212	=212	=212	=212	=212	=212	=212	=212
8E\L	.	4.ryy	.	8g/L	.	8e/	.	8e/	.
8G#X\	.	.	.	8b/	.	4dd\	.	4dd\	-i
8E\J	.	.	.	8g/J	.	.	.	.	.
!LO:LB:g=original	!	!	!	!	!	!	!	!	!
=213	=213	=213	=213	=213	=213	=213	=213	=213	=213
!LO:TX:a:t=P:problem: mixed beam	!	!	!	!	!	!	!	!	!
8A\L	.	4.ryy	.	8e/L	.	8dd\L	.	8ddT\L	noſ-
8AA/J	.	.	.	8e/J	.	8cc#\J	.	8b\J	-tri
8r	.	.	.	8r	.	8r	.	8r	.
!	!	!	!	!	!	!	!	!LO:LB:g=original	!
=214	=214	=214	=214	=214	=214	=214	=214	=214	=214
4d\	.	4.ryy	.	8.dd\L	.	8.dd\L	.	8.dd\L	do-
.	.	.	.	16ee\K	.	16ee\K	.	16ee\Jk	.
8r	.	.	.	8ff#\J	.	8ff#\J	.	8ff#\	.
=215	=215	=215	=215	=215	=215	=215	=215	=215	=215
8A\L	.	4.ryy	.	8cc#\L	.	8ee\	.	8ee\	.
8A\	.	.	.	8cc#\	.	4a/	.	4a\	-muſ
8A\J	.	.	.	8cc#\J	.	.	.	.	.
=216	=216	=216	=216	=216	=216	=216	=216	=216	=216
8d\L	.	4.ryy	.	8dd\L	.	8ff#\L	.	8ff#\L	De-
8A\J	.	.	.	8cc#\J	.	8ee\J	.	8ee\J	-i
8r	.	.	.	8r	.	8r	.	8r	.
=217	=217	=217	=217	=217	=217	=217	=217	=217	=217
8d\L	.	4.ryy	.	8dd\L	.	8dd\L	.	8dd\L	do-
8B\	.	.	.	8b\	.	8b\	.	8b\J	.
8F#\J	.	.	.	8f#\J	.	8f#\J	.	8f#/	-muſ
!	!	!	!	!	!	!LO:LB:g=original	!	!	!
=218	=218	=218	=218	=218	=218	=218	=218	=218	=218
8G\	.	4.ryy	.	8g/	.	8g/	.	(8g\	De-
4B\	.	.	.	4a/	.	4a/	.	4a\)	.
=219	=219	=219	=219	=219	=219	=219	=219	=219	=219
!	!	!	!	!	!	!LO:TX:a:t=P:problem:fermata pod nutą	!	!	!
4B;\	.	4.ryy	.	4b;\	.	4b;/	.	4b;\	-i
!	!	!	!	!	!	!LO:TX:a:t=P:problem: niepełna miara taktu - brak pauzy	!	!	!
8r	.	.	.	8r	.	8ryy	.	8r	.
=220	=220	=220	=220	=220	=220	=220	=220	=220	=220
8d\L	.	4.ryy	.	8dd\L	.	8dd\L	.	8dd\L	no-
8B\	.	.	.	8b\	.	8b\	.	8b\	.
8F#\J	.	.	.	8f#\J	.	8f#\J	.	8f#\J	.
=221	=221	=221	=221	=221	=221	=221	=221	=221	=221
8G\	.	4.ryy	.	8g/	.	8g/	.	8g\	.
4A;\	.	.	.	4a/	.	4a/	.	4a\	.
=222	=222	=222	=222	=222	=222	=222	=222	=222	=222
4D/	.	4.ryy	.	4d/	.	4d/	.	4d/	-stri
8r	.	.	.	8r	.	8r	.	8r	.
!LO:TX:a:t=Da Capo	!	!	!	!LO:TX:a:t=Da Capo	!	!LO:TX:a:t=Da Capo	!	!LO:TX:a:t=Da Capo	!
==	==	==	==	==	==	==	==	==	==
*-	*-	*-	*-	*-	*-	*-	*-	*-	*-
!!!system-decoration: [(g1)][(g2)][(g3)]
!!!ENC:Anna Matuszewska
!!!END:2020-11-26
!!!ENC: Tomasz Grochalski
!!!END: 2020-05-10
